ncols        60
nrows        43
xllcorner    122.350000000000
yllcorner    30.620833333333
cellsize     0.004166666667
NODATA_value -32767
-11 -11 -11 -11 -12 -12 -12 -13 -13 -13 -13 -14 -15 -15 -15 -15 -15 -15 -17 -20 -24 -26 -22 -16 -17 -17 -18 -19 -21 -21 -21 -21 -21 -20 -20 -19 -18 -17 -16 -16 -16 -16 -16 -16 -17 -17 -18 -18 -19 -20 -21 -24 -27 -30 -33 -36 -40 -44 -46 -42 
-12 -12 -12 -12 -12 -12 -12 -13 -14 -14 -14 -15 -15 -16 -16 -16 -16 -17 -18 -23 -28 -31 -29 -25 -23 -22 -21 -22 -24 -25 -26 -26 -24 -22 -21 -19 -18 -17 -16 -16 -16 -15 -15 -16 -17 -17 -18 -18 -19 -19 -20 -22 -24 -27 -30 -33 -36 -40 -44 -47 
-12 -12 -12 -12 -13 -13 -13 -14 -14 -15 -16 -16 -16 -16 -16 -16 -16 -17 -18 -24 -30 -36 -35 -33 -29 -25 -23 -23 -24 -27 -29 -32 -27 -22 -21 -19 -18 -17 -16 -16 -16 -15 -15 -16 -17 -17 -18 -18 -19 -19 -20 -21 -23 -24 -27 -29 -31 -35 -37 -41 
-12 -12 -13 -13 -14 -15 -15 -15 -14 -16 -18 -17 -16 -16 -16 -16 -16 -17 -18 -23 -28 -33 -35 -38 -31 -27 -25 -23 -22 -24 -26 -26 -24 -20 -18 -17 -17 -17 -16 -16 -16 -16 -16 -16 -16 -17 -17 -18 -19 -20 -21 -21 -22 -23 -25 -27 -29 -32 -34 -35 
-12 -12 -13 -14 -16 -17 -18 -18 -18 -19 -21 -20 -18 -16 -16 -15 -16 -17 -19 -22 -25 -26 -24 -21 -22 -24 -25 -20 -15 -20 -22 -22 -20 -17 -15 -16 -16 -16 -15 -15 -15 -15 -16 -16 -16 -17 -17 -18 -18 -19 -20 -21 -21 -23 -24 -25 -27 -30 -32 -34 
-11 -12 -13 -15 -17 -18 -19 -18 -19 -20 -21 -21 -18 -16 -15 -15 -15 -16 -18 -22 -25 -23 -17 -5 -13 -18 -21 -17 -7 -20 -21 -20 -18 -15 -14 -15 -16 -16 -15 -15 -15 -15 -15 -15 -16 -16 -16 -17 -18 -18 -19 -19 -20 -21 -22 -24 -25 -28 -30 -32 
-11 -11 -12 -14 -17 -19 -17 -17 -20 -20 -19 -17 -15 -14 -13 -13 -13 -13 -16 -20 -25 -29 -33 -37 -25 -21 -30 -40 -41 -48 -28 -22 -18 -15 -13 -13 -14 -14 -14 -14 -14 -14 -14 -15 -15 -15 -16 -16 -16 -17 -17 -17 -18 -20 -21 -23 -24 -27 -29 -30 
-10 -11 -11 -12 -13 -14 -12 -10 -21 -18 27 -13 -11 -10 -10 -11 -11 -11 -13 -18 -24 -29 14 -27 -16 -10 -34 -62 -57 -51 -36 -26 -19 -15 -12 -11 -12 -12 -12 -13 -13 -14 -14 -14 -14 -14 -14 -15 -15 -16 -16 -17 -18 -19 -20 -22 -23 -25 -28 -29 
-10 -10 -10 -10 -11 -10 -10 4 -13 19 -9 -8 -8 -8 -8 -9 -9 -9 -10 -14 -19 -25 -29 -20 -10 -12 -25 -41 -45 -43 -33 -24 -18 -14 -11 -11 -10 -9 -9 -11 -12 -13 -14 -14 -14 -14 -14 -14 -15 -15 -16 -16 -17 -18 -19 -21 -22 -24 -26 -27 
-9 -9 -9 -9 -9 -8 -7 -7 51 63 -5 -5 -6 -7 -8 -8 -8 -8 -7 -8 -10 -12 -15 -12 -8 -9 -15 -24 -31 -34 -27 -20 -14 -12 -10 -9 -8 -7 -6 -9 -11 -13 -14 -15 -14 -14 -14 -14 -14 -15 -16 -16 -17 -18 -19 -20 -22 -23 -24 -26 
-9 -9 -8 -8 -7 -6 -5 -4 26 47 -4 -7 -7 -8 -9 -10 -10 -8 -7 -6 -6 -7 -7 -6 43 52 52 -11 -19 -22 -19 -16 -13 -12 -10 -10 -9 -8 -7 -9 -11 -13 -13 -14 -14 -14 -14 -14 -14 -15 -16 -16 -17 -18 -19 -20 -22 -22 -24 -25 
-9 -8 -8 -7 -7 -6 -4 -3 -2 19 -3 -6 -7 -7 -11 -15 -13 -10 -7 -5 -3 -2 -2 -1 52 73 50 22 -10 -15 -15 -14 -12 -11 -11 -10 -11 -11 -10 -11 -12 -13 -13 -13 -14 -14 -14 -14 -15 -15 -16 -16 -16 -17 -18 -20 -22 -21 -22 -24 
-9 -8 -8 -8 -7 -7 -6 -5 -3 26 -7 -7 -9 -12 -17 -22 -16 -12 -8 -5 -3 -1 -1 13 31 31 28 21 -6 -9 -10 -11 -10 -10 -10 -10 -10 -11 -11 -11 -11 -12 -11 -13 -14 -14 -14 -15 -15 -15 -15 -16 -16 -17 -18 -19 -20 -21 -22 -24 
-9 -8 -8 -8 -8 -9 -10 -14 -17 -17 -14 -11 -11 -12 -15 -16 -12 -9 19 21 30 19 18 -5 -3 9 -2 -3 -4 -5 -7 -8 -8 -8 -9 -9 -10 -11 -12 -12 -11 -10 -10 -13 -15 -15 -15 -14 -15 -15 -15 -15 -15 -16 -17 -18 -19 -20 -21 -23 
-9 -8 -8 -8 -9 -10 -13 -21 -31 -28 -18 -13 -11 -11 -12 -13 -5 -6 -5 26 60 44 33 3 0 -3 -6 -5 -4 -4 -5 -6 -6 -7 -7 -8 -9 -12 -13 -14 -10 -13 -16 -17 -17 -17 -14 -14 -14 -14 -14 -15 -15 -15 -16 -17 -18 -19 -20 -22 
-9 -9 -9 -9 -9 -9 -11 -17 -21 -20 -15 -11 -8 -7 -7 -7 -5 -6 -4 3 34 42 60 39 4 -2 -7 -6 -3 -3 -4 -4 -5 -6 -6 -7 -8 -10 -11 -12 -13 -16 -20 -21 -20 -19 -12 -11 -13 -14 -14 -15 -15 -15 -16 -17 -18 -19 -19 -21 
-9 -9 -9 -9 -9 -10 -11 -13 -14 -11 -7 -6 -5 -4 -4 -3 -5 -6 -5 4 15 28 64 48 15 2 -6 -6 -4 -4 -4 -3 -4 -5 -5 -5 -7 -9 -8 -9 -12 -18 -22 -22 -20 -13 -2 -8 -13 -14 -15 -15 -15 -15 -16 -17 -18 -18 -19 -20 
-10 -9 -9 -9 -9 -9 -9 -9 -9 -8 -6 -5 -4 -3 -3 -3 -5 -6 -5 6 18 43 46 23 14 13 29 -1 -4 -5 -4 -3 -3 -4 -6 -5 -5 -5 -4 -3 -10 -18 12 -24 -22 -19 -14 -15 -18 -17 -16 -16 -16 -16 -16 -17 -18 -19 -19 -20 
-10 -10 -9 -9 -9 -9 -8 -7 -7 -6 -4 -4 -4 -2 -2 -2 -4 -5 -5 8 21 47 72 61 32 43 61 55 1 -5 -3 -2 -2 -2 -6 -5 17 -2 -2 -2 -4 40 41 52 -19 -23 -20 -19 -18 -18 -17 -16 -16 -16 -16 -17 -18 -19 -19 -20 
-11 -10 -10 -10 -10 -9 -8 -7 -6 -5 -4 -4 -3 -3 -2 -2 -2 -1 4 14 25 46 74 80 61 41 19 20 7 0 -2 -2 -2 -2 -3 -1 36 65 -1 0 41 36 -2 -8 -15 -19 -19 -18 -18 -17 -17 -16 -16 -16 -16 -17 -18 -18 -19 -19 
-11 -11 -11 -10 -10 -10 -9 -8 -7 -6 -5 -4 -3 -3 -3 -2 1 5 12 20 29 83 98 110 109 44 16 8 10 9 6 -1 -1 -1 25 33 44 86 38 41 73 46 -1 -6 -11 -15 -15 -16 -16 -16 -16 -16 -15 -15 -16 -16 -17 -18 -19 -19 
-13 -12 -12 -11 -11 -11 -10 -9 -8 -7 -6 -5 -5 -5 -4 -2 2 8 17 24 46 67 70 60 117 96 27 29 54 38 25 46 67 68 70 35 45 83 82 46 59 49 -2 -5 -9 7 -10 -12 -14 -16 -16 -15 -15 -15 -15 -16 -16 -17 -18 -19 
-13 -13 -13 -12 -12 -12 -11 -10 -9 -8 -7 -6 -5 -5 -4 -3 0 6 42 99 114 73 37 22 66 75 64 107 85 55 19 26 53 108 60 6 21 23 32 26 23 63 68 49 19 -9 -10 -12 -14 -15 -15 -15 -14 -14 -14 -15 -16 -17 -17 -18 
-14 -14 -14 -14 -14 -14 -14 -12 -11 -9 -8 -7 -6 -4 -5 -5 -4 -2 73 101 63 29 30 33 67 20 24 48 21 5 1 -1 50 67 4 -1 23 31 1 -1 -1 19 34 34 -6 -7 -9 -11 -13 -14 -15 -15 -14 -14 -14 -15 -16 -17 -17 -18 
-15 -15 -15 -15 -16 -16 -16 -15 -13 -11 -9 -8 -8 -8 -7 -5 -4 16 31 35 18 12 12 11 10 14 9 -2 -2 -2 -2 -3 -4 -5 -4 -5 -4 -4 -5 -5 -4 -4 -6 -9 -9 -9 -10 -11 -12 -13 -15 -15 -15 -14 -15 -16 -16 -17 -17 -18 
-15 -15 -16 -17 -17 -18 -18 -17 -15 -12 -8 -7 -8 -10 -7 -5 -3 16 -1 7 1 -1 1 4 -2 26 30 -9 -8 -7 -7 -6 -6 -8 -10 -9 -9 -10 -8 -6 -6 -7 -8 -9 -9 -9 -10 -12 -14 -15 -17 -17 -16 -15 -16 -16 -16 -17 -16 -17 
-16 -17 -17 -18 -18 -19 -20 -20 -19 -16 -12 -7 -7 -7 -5 -3 -2 -1 22 0 -2 -4 4 -4 -6 -9 -13 -14 -13 -13 -11 -9 -7 -8 -10 -9 -8 -6 -7 -7 -7 -9 -10 -10 -9 -10 -11 -13 -15 -17 -19 -20 -20 -20 -19 -18 -17 -17 -17 -17 
-17 -18 -18 -18 -19 -21 -22 -24 -25 -22 -21 -16 -11 -6 -3 -2 18 0 1 -1 -1 -4 -6 -5 -8 -12 -17 -16 -16 2 -14 -11 -9 -9 -9 -8 -8 -8 -8 -8 -9 -10 -11 -10 -8 -10 -11 -13 -14 -17 -20 -20 -21 -23 -22 -20 -19 -18 -18 -17 
-18 -19 -19 -19 -19 -21 -24 -26 -28 -27 -34 -28 -16 -4 11 -2 16 7 -4 -7 -3 -9 -13 -12 -10 -9 -8 -5 -11 -15 -15 -13 -10 -9 -8 -8 -8 -8 -8 -9 -10 -11 -11 -10 -8 -8 -10 -12 -12 4 -15 -16 -18 -20 -21 -21 -21 -20 -19 -18 
-19 -20 -20 -21 -21 -22 -25 -31 -38 -48 -60 -47 -30 -15 27 23 -9 12 29 -31 -14 -17 -25 -19 -12 -7 -8 -9 -13 -17 -15 -13 -11 -9 -8 -8 -8 -8 -9 -9 -11 -12 -11 -9 -7 -5 -6 -7 -7 16 13 -9 -13 -18 -21 -21 -22 -22 -21 -19 
-19 -20 -21 -22 -22 -23 -26 -34 -42 -52 -59 -54 -43 19 45 -6 -15 11 -45 -68 -9 -11 -17 -17 -15 -12 -12 -13 -14 -14 -13 18 -11 -9 -9 -9 -9 -8 -9 -9 -9 7 26 24 -5 -6 -5 -3 -1 62 68 54 -4 -13 -18 -19 -20 -22 -23 -21 
-19 -20 -21 -22 -23 -23 -24 -35 -43 -52 -60 -62 -62 -52 -39 -29 -26 -27 -34 -39 -19 -15 -17 -19 -19 -18 -17 -16 -14 -11 -10 16 -12 -10 -11 -11 -11 -10 -9 -9 -7 20 68 49 -2 -4 -4 0 7 81 156 94 45 4 -4 -10 -15 -19 -22 -22 
-18 -19 -21 -22 -24 -24 -27 -34 -41 -50 -59 -65 -70 -72 -58 -46 -38 -31 -26 -25 -18 -16 -19 -22 -24 -24 -24 -21 -17 -12 -9 -14 -18 -17 -16 -15 -13 -12 -11 -11 -9 -7 -3 -4 34 32 -17 33 64 78 113 119 113 52 28 26 -10 -17 -21 -21 
-18 -19 -20 -21 -23 -24 -26 -31 -37 -44 -53 -61 -68 -73 -66 -57 -48 -40 -32 -23 -18 -19 -24 -28 -30 -30 -29 -26 -23 -18 -17 -22 -28 -23 -19 -17 -14 -13 -13 -14 -14 -12 -9 -8 -7 -6 -8 0 79 92 35 44 84 62 28 9 -12 -17 -20 -21 
-18 -19 -20 -20 -21 -21 -23 -27 -32 -38 -45 -53 -62 -69 -67 -62 -56 -49 -42 -26 -24 -25 -31 -37 -36 -35 -33 -29 -26 -22 -20 -21 -22 -19 -17 -15 -13 -12 -14 -17 -20 -19 -14 -13 -12 -11 22 28 71 98 48 -4 -4 -7 -11 -12 -14 -17 -20 -20 
-17 -18 -19 -19 -19 -20 -21 -24 -27 -31 -37 -44 -53 -60 -63 -65 -61 -59 -57 -47 -41 -36 -39 -41 -40 -38 -36 -31 -28 -24 -22 -21 -19 -15 -15 -14 -12 -12 -14 24 -24 -21 -18 -17 -16 -14 -10 -3 31 6 59 45 -6 -10 -12 -13 -14 -15 -17 -18 
-17 -18 -18 -18 -18 -19 -19 -21 -22 -25 -29 -35 -42 -47 -50 -54 -57 -65 -74 -66 -60 -62 -52 -46 -43 -41 -39 -34 -30 -27 -24 -22 -20 -18 -17 -16 -14 -13 -12 33 -15 -16 -17 -18 -18 -18 -15 -11 -7 -3 -1 36 16 -14 -12 -14 -15 -15 -16 -17 
-17 -17 -17 -17 -18 -18 -18 -19 -19 -19 -21 -26 -31 -33 -35 -37 -43 -57 -87 -71 -56 -52 -47 -45 -44 -43 -41 -37 -32 -28 -26 -25 -23 -22 -21 -19 -17 -15 -10 -4 11 -9 -13 -17 -20 -23 -21 -19 -18 -12 -8 -11 -17 -22 -19 -17 -16 -16 -17 -17 
-16 -15 -16 -16 -16 -15 -17 -18 -17 -14 -15 -17 -18 -18 -18 -16 -16 -15 -45 -45 -33 -37 -38 -40 -42 -43 -42 -37 -32 -29 -29 -28 -26 -24 -23 -22 -21 -20 -18 -15 -10 -4 -9 -14 -19 -22 -22 -21 -21 -19 -17 -17 -20 -22 -21 -18 -17 -17 -18 -18 
-16 -16 -17 -17 -18 -18 -20 -22 -19 -15 -13 -13 -11 -8 -10 -13 -18 17 -45 -44 -39 -36 -30 -33 -40 -40 -42 -38 -34 -32 -35 -31 -28 -26 -25 -24 -23 -24 -27 -31 -22 -14 -12 -16 -19 -22 -22 -22 -21 -21 -21 -21 -21 -22 -21 -19 -18 -18 -18 -19 
-16 -16 -17 -18 -19 -19 -20 -21 -19 -17 -15 -13 -10 -7 -8 -11 8 -27 -30 -40 -47 -39 -19 -20 -23 -28 -33 -35 -30 -30 -31 -30 -28 -27 -26 -25 -25 -26 -28 -28 -24 -20 -18 -19 -20 -22 -22 -22 -22 -23 -23 -23 -22 -22 -21 -20 -19 -19 -19 -20 
-16 -16 -17 -18 -19 -20 -20 -21 -20 -19 -18 -16 -13 -9 -7 -5 -5 -5 -4 -36 -69 -64 -39 -20 -10 -16 -25 -38 -21 -26 -27 -28 -28 -27 -27 -26 -25 -25 -26 -26 -25 -24 -22 -22 -22 -22 -22 -21 -21 -22 -24 -23 -22 -21 -21 -20 -20 -20 -20 -20 
-17 -18 -17 -17 -19 -21 -21 -22 -22 -23 -22 -20 -18 -15 -9 -2 1 33 30 -31 -60 -78 -50 -23 -14 -12 15 -25 -27 9 -29 -27 -27 -28 -27 -26 -24 -23 -24 -24 -24 -23 -23 -23 -22 -22 -21 -21 -21 -22 -23 -22 -22 -21 -21 -21 -21 -21 -21 -21 
