ncols        60
nrows        43
xllcorner    122.350000000000
yllcorner    30.620833333333
cellsize     0.004166666667
NODATA_value -32767
-11 -11 -11 -12 -12 -12 -12 -13 -13 -13 -13 -14 -15 -15 -15 -15 -15 -15 -16 -18 -21 -22 -23 -23 -22 -21 -21 -22 -23 -23 -23 -20 -20 -20 -20 -19 -18 -17 -16 -16 -16 -16 -16 -17 -17 -18 -18 -18 -19 -19 -22 -25 -29 -33 -36 -38 -40 -44 -47 -44 
-11 -12 -12 -12 -12 -12 -13 -13 -13 -14 -14 -15 -15 -16 -16 -15 -16 -16 -18 -21 -25 -30 -35 -31 -27 -24 -23 -24 -25 -26 -26 -25 -23 -22 -22 -20 -18 -17 -16 -16 -16 -16 -16 -16 -17 -18 -18 -18 -18 -18 -20 -23 -26 -29 -32 -34 -37 -39 -41 -42 
-12 -12 -12 -12 -12 -13 -14 -15 -15 -15 -16 -16 -16 -16 -16 -16 -16 -17 -19 -22 -26 -32 -37 -33 -28 -26 -24 -24 -24 -27 -30 -28 -25 -22 -21 -19 -18 -17 -16 -16 -16 -16 -16 -16 -17 -17 -18 -18 -18 -18 -20 -22 -24 -27 -29 -32 -34 -36 -38 -40 
-12 -12 -13 -13 -14 -16 -17 -17 -18 -18 -18 -18 -17 -16 -16 -16 -17 -18 -19 -22 -24 -25 -25 -25 -25 -24 -23 -21 -20 -23 -26 -26 -24 -21 -19 -18 -17 -16 -16 -16 -16 -16 -16 -16 -17 -17 -17 -18 -18 -19 -20 -21 -23 -25 -27 -29 -32 -34 -36 -37 
-12 -12 -13 -14 -16 -18 -20 -20 -20 -21 -21 -19 -17 -16 -15 -16 -16 -18 -19 -21 -22 -18 -12 -18 -22 -23 -22 -19 -13 -20 -25 -25 -22 -19 -16 -16 -16 -16 -15 -15 -16 -16 -16 -16 -16 -17 -17 -18 -18 -19 -19 -21 -22 -23 -25 -27 -30 -32 -34 -34 
-11 -12 -13 -15 -17 -20 -22 -22 -22 -22 -21 -18 -16 -14 -14 -15 -16 -17 -19 -20 -21 -21 -21 -25 -25 -25 -24 -24 -24 -28 -30 -28 -23 -18 -14 -14 -14 -15 -15 -15 -15 -15 -15 -15 -16 -16 -16 -17 -17 -17 -18 -19 -20 -21 -23 -25 -28 -30 -32 -32 
-10 -11 -13 -15 -18 -20 -22 -22 -22 -20 -18 -15 -13 -12 -12 -13 -14 -15 -16 -18 -21 -25 -29 -34 -30 -27 -28 -29 -32 -36 -39 -32 -25 -19 -14 -13 -13 -13 -13 -13 -14 -14 -14 -15 -15 -15 -16 -16 -16 -16 -17 -17 -19 -19 -21 -23 -25 -28 -29 -30 
-10 -11 -13 -15 -18 -21 -22 -19 -17 -15 27 -10 -10 -10 -10 -11 -11 -12 -13 -15 -19 -24 14 -30 -26 -24 -29 -32 -35 -38 -37 -31 -24 -18 -14 -12 -11 -10 -11 -12 -13 -14 -14 -15 -15 -15 -15 -15 -15 -16 -16 -17 -17 -18 -20 -22 -24 -26 -27 -29 
-10 -10 -12 -14 -17 -20 -23 4 -12 19 -6 -6 -7 -8 -8 -9 -9 -9 -9 -11 -15 -21 -29 -25 -18 -15 -28 -31 -34 -38 -34 -28 -22 -16 -12 -11 -10 -8 -9 -11 -13 -14 -14 -15 -14 -14 -14 -14 -15 -16 -16 -16 -17 -17 -19 -21 -23 -24 -26 -27 
-9 -10 -10 -11 -12 -14 -14 -11 51 63 -6 -6 -7 -8 -8 -9 -9 -9 -8 -9 -11 -15 -18 -15 -11 -11 -17 -21 -26 -30 -28 -24 -19 -14 -11 -10 -8 -8 -9 -10 -12 -13 -14 -14 -14 -14 -14 -14 -15 -15 -16 -16 -16 -17 -18 -20 -22 -24 -25 -27 
-9 -9 -9 -8 -8 -7 -6 -6 26 47 -6 -6 -7 -8 -9 -10 -10 -9 -7 -7 -6 -8 -8 -6 43 52 52 -10 -16 -21 -21 -18 -15 -11 -10 -9 -8 -7 -9 -10 -12 -13 -13 -13 -14 -14 -14 -14 -14 -15 -16 -16 -16 -17 -18 -20 -21 -23 -25 -26 
-8 -8 -8 -7 -7 -6 -5 -4 -6 19 -6 -7 -9 -10 -11 -11 -10 -8 -6 -5 -4 -3 -1 2 52 73 50 22 -9 -14 -15 -14 -12 -11 -10 -9 -9 -9 -10 -11 -12 -13 -13 -13 -13 -13 -13 -14 -14 -15 -15 -16 -16 -17 -18 -19 -21 -22 -24 -25 
-8 -8 -8 -7 -7 -6 -6 -6 -8 26 -8 -10 -11 -12 -14 -12 -9 -7 -4 -3 -1 1 4 13 31 31 28 21 -4 -8 -10 -10 -10 -10 -10 -10 -10 -10 -11 -12 -13 -13 -12 -12 -12 -12 -13 -13 -14 -14 -15 -15 -16 -16 -17 -19 -20 -21 -23 -24 
-8 -8 -8 -8 -8 -9 -10 -11 -14 -15 -14 -14 -12 -13 -17 -13 -8 -5 19 21 30 19 18 11 10 9 5 1 -2 -3 -6 -7 -8 -9 -9 -9 -10 -11 -12 -13 -14 -14 -13 -11 -12 -12 -12 -13 -14 -14 -15 -15 -16 -16 -17 -18 -19 -20 -21 -23 
-9 -8 -8 -9 -9 -11 -13 -16 -20 -22 -21 -17 -12 -10 -11 -10 -8 -6 -3 26 60 44 33 13 7 0 -1 -2 -3 -3 -5 -6 -7 -8 -8 -9 -10 -12 -12 -13 -14 -16 -18 -17 -15 -11 -11 -12 -13 -14 -14 -15 -15 -16 -17 -17 -18 -19 -20 -22 
-9 -9 -9 -9 -10 -11 -14 -19 -26 -26 -26 -17 -8 -6 -5 -6 -7 -7 -5 2 34 42 60 39 5 -8 -6 -4 -3 -3 -4 -5 -6 -7 -8 -9 -10 -12 -11 -12 -14 -17 -22 -21 -18 -9 -10 -12 -14 -14 -14 -15 -15 -15 -16 -17 -18 -18 -19 -21 
-9 -9 -9 -9 -10 -11 -12 -16 -18 -18 -16 -12 -7 -5 -4 -4 -6 -6 -5 2 11 28 64 48 15 3 1 -1 -2 -3 -4 -5 -6 -7 -8 -7 -8 -8 -8 -9 -12 -15 -18 -18 -17 -14 -15 -16 -16 -15 -15 -15 -15 -16 -16 -17 -18 -19 -19 -20 
-10 -9 -9 -9 -9 -9 -9 -11 -11 -9 -5 -5 -4 -3 -3 -3 -5 -7 -5 3 13 43 46 23 14 13 29 5 0 -3 -4 -3 -5 -7 -7 -5 -5 -3 -2 -5 -9 -13 12 -13 -15 -18 -21 -20 -18 -17 -16 -16 -16 -16 -17 -17 -18 -19 -20 -20 
-10 -10 -10 -9 -9 -8 -8 -8 -8 -6 -3 -3 -3 -3 -3 -3 -5 -7 -7 3 15 47 72 61 32 43 61 55 2 -5 -4 -3 -4 -6 -9 -5 17 -1 -1 -2 -3 40 41 52 -13 -19 -24 -22 -20 -18 -17 -16 -16 -16 -17 -17 -18 -19 -19 -20 
-11 -11 -10 -10 -9 -9 -8 -7 -7 -5 -4 -4 -4 -3 -3 -3 -3 -3 -1 8 19 46 74 80 61 41 19 20 8 1 -1 -1 -1 -1 -3 0 36 65 2 1 41 36 -2 -6 -11 -15 -20 -20 -19 -18 -17 -16 -16 -16 -16 -17 -18 -18 -19 -20 
-12 -12 -11 -11 -10 -10 -9 -8 -7 -6 -5 -4 -4 -4 -3 -3 0 3 8 15 23 83 98 110 109 44 16 8 10 9 6 3 3 4 25 33 44 86 38 41 73 46 1 -4 -8 -12 -16 -17 -17 -17 -16 -16 -15 -16 -16 -16 -17 -18 -18 -19 
-13 -13 -12 -12 -11 -11 -10 -9 -8 -7 -6 -5 -5 -4 -4 -3 2 8 15 20 46 67 70 60 117 96 27 29 54 38 25 46 67 68 70 35 45 83 82 46 59 49 4 -3 -5 7 -12 -14 -15 -16 -16 -15 -15 -15 -15 -16 -17 -17 -18 -19 
-13 -14 -13 -13 -12 -12 -11 -10 -8 -7 -7 -6 -6 -6 -4 -2 3 10 42 99 114 73 37 22 66 75 64 107 85 55 19 26 53 108 60 11 21 23 32 26 23 63 68 49 19 -7 -12 -14 -15 -15 -15 -15 -15 -14 -15 -16 -16 -17 -17 -18 
-14 -14 -14 -14 -13 -13 -13 -11 -9 -8 -7 -7 -6 -5 -4 -2 0 3 73 101 63 29 30 33 67 20 24 48 21 5 2 2 50 67 4 -1 23 31 5 3 2 19 34 34 -3 -6 -10 -12 -14 -15 -15 -15 -15 -15 -15 -16 -16 -17 -17 -18 
-15 -15 -15 -15 -15 -15 -14 -13 -11 -9 -8 -7 -7 -7 -6 -4 -2 16 31 35 18 10 11 12 11 14 9 5 2 -2 -3 -3 -2 -3 -4 -5 -4 -3 -3 -2 -3 -3 -5 -6 -6 -8 -10 -12 -14 -15 -16 -16 -15 -15 -16 -16 -16 -16 -17 -17 
-16 -16 -16 -16 -17 -17 -17 -16 -14 -12 -9 -9 -8 -9 -6 -4 -3 16 -3 7 1 0 -2 4 -3 26 30 -5 -5 -10 -8 -6 -6 -7 -9 -9 -9 -11 -8 -7 -7 -9 -11 -11 -10 -9 -9 -12 -14 -15 -16 -17 -16 -16 -16 -17 -17 -16 -16 -17 
-16 -17 -17 -18 -18 -19 -19 -19 -17 -16 -13 -10 -8 -6 -5 -3 -3 -3 22 -2 -3 -4 4 -6 -8 -10 -10 -12 -11 -13 -12 -10 -9 -9 -10 -9 -8 -10 -9 -8 -8 -10 -12 -11 -11 -11 -11 -13 -14 -16 -17 -18 -18 -19 -19 -19 -18 -17 -17 -17 
-17 -18 -18 -19 -19 -21 -22 -22 -22 -21 -18 -14 -7 -3 -2 -2 18 -2 -3 -4 -5 -8 -8 -9 -9 -9 -11 -14 -14 2 -13 -12 -10 -9 -9 -8 -7 -8 -8 -8 -9 -10 -11 -11 -11 -11 -12 -13 -15 -16 -16 -18 -19 -21 -22 -21 -20 -18 -18 -18 
-18 -19 -20 -20 -21 -23 -25 -26 -28 -29 -27 -22 -12 -3 11 -2 16 7 -3 -5 -8 -16 -16 -13 -10 -7 -7 -8 -12 -14 -14 -12 -10 -8 -8 -8 -8 -8 -8 -9 -10 -11 -11 -9 -10 -11 -12 -12 -13 4 -12 -12 -18 -24 -24 -23 -22 -21 -21 -20 
-19 -20 -21 -22 -23 -24 -26 -29 -33 -37 -40 -35 -21 -3 27 23 -7 12 29 -12 -18 -21 -21 -16 -12 -9 -9 -10 -13 -16 -15 -13 -11 -8 -8 -8 -8 -8 -9 -10 -11 -12 -12 -10 -10 -10 -11 -9 -8 16 13 -10 -18 -28 -26 -23 -22 -21 -22 -21 
-19 -20 -21 -22 -23 -24 -26 -31 -37 -44 -51 -54 -39 19 45 -12 -16 11 -17 -23 -31 -26 -21 -18 -15 -13 -12 -13 -15 -16 -15 18 -12 -9 -9 -10 -9 -10 -10 -11 -11 7 26 24 -8 -6 -5 0 4 62 68 54 -10 -21 -20 -19 -19 -19 -20 -20 
-19 -20 -21 -22 -23 -25 -28 -33 -39 -46 -53 -57 -55 -48 -38 -33 -29 -26 -24 -26 -28 -25 -22 -20 -19 -18 -17 -17 -16 -15 -14 16 -16 -16 -15 -13 -12 -11 -12 -12 -12 20 68 49 -10 -9 -3 7 18 81 156 94 45 2 -4 -10 -14 -18 -20 -21 
-19 -19 -20 -22 -23 -25 -28 -32 -38 -44 -52 -60 -67 -72 -63 -51 -42 -36 -30 -28 -26 -24 -22 -22 -23 -23 -22 -20 -19 -15 -13 -16 -20 -24 -20 -15 -13 -13 -13 -14 -14 -13 -11 -8 34 32 -4 33 64 78 113 119 113 52 28 26 -10 -15 -20 -21 
-18 -19 -20 -21 -22 -24 -26 -30 -36 -42 -49 -57 -65 -69 -65 -58 -52 -46 -40 -33 -27 -25 -25 -27 -28 -27 -26 -23 -21 -18 -15 -17 -19 -20 -18 -15 -14 -14 -15 -16 -17 -16 -14 -12 -13 -11 -3 9 79 92 35 44 84 62 28 9 -9 -15 -18 -20 
-18 -18 -19 -20 -20 -22 -24 -27 -32 -37 -43 -51 -57 -62 -62 -61 -59 -56 -52 -41 -28 -28 -30 -33 -33 -32 -30 -27 -24 -21 -19 -19 -19 -18 -15 -14 -13 -13 -15 -18 -22 -20 -17 -15 -14 -11 22 28 71 98 48 5 3 1 -2 -6 -10 -14 -17 -18 
-17 -18 -19 -19 -19 -20 -22 -24 -27 -30 -34 -40 -47 -53 -57 -60 -63 -68 -69 -57 -43 -36 -34 -35 -36 -36 -33 -29 -26 -24 -22 -21 -20 -18 -16 -15 -13 -13 -14 24 -19 -19 -19 -18 -17 -16 -13 -6 31 6 59 45 -6 -9 -9 -10 -12 -14 -16 -17 
-17 -18 -18 -18 -19 -19 -20 -22 -22 -23 -23 -30 -36 -42 -48 -56 -62 -73 -86 -69 -52 -41 -37 -37 -39 -41 -36 -31 -28 -26 -25 -24 -22 -20 -18 -16 -14 -13 -13 33 -15 -17 -20 -20 -20 -21 -22 -15 -8 -5 -6 36 16 -19 -15 -12 -13 -14 -16 -17 
-16 -17 -17 -17 -17 -17 -18 -18 -18 -18 -19 -22 -26 -30 -34 -39 -45 -57 -65 -60 -49 -40 -36 -37 -39 -41 -38 -34 -31 -29 -29 -27 -25 -22 -20 -19 -17 -15 -14 -12 11 -13 -16 -18 -20 -22 -22 -19 -15 -13 -14 -17 -20 -22 -19 -16 -16 -16 -17 -17 
-15 -16 -17 -17 -16 -16 -17 -17 -15 -15 -15 -15 -16 -17 -20 -22 -23 -37 -47 -49 -45 -35 -34 -34 -37 -40 -38 -34 -30 -31 -33 -30 -27 -25 -23 -22 -21 -20 -16 -12 -6 -10 -13 -16 -18 -21 -23 -22 -21 -21 -22 -22 -22 -23 -21 -19 -17 -17 -17 -18 
-15 -16 -16 -17 -18 -18 -18 -18 -16 -14 -13 -12 -11 -8 -12 -16 -20 17 -38 -47 -50 -43 -35 -30 -32 -36 -34 -31 -28 -28 -29 -28 -27 -26 -25 -24 -24 -25 -22 -19 -17 -15 -14 -17 -19 -22 -23 -24 -25 -26 -24 -22 -23 -23 -21 -20 -18 -18 -18 -19 
-16 -16 -16 -17 -19 -20 -22 -20 -18 -16 -15 -14 -12 -10 -11 -14 8 -24 -33 -49 -63 -54 -36 -21 -24 -27 -28 -28 -24 -26 -27 -27 -27 -26 -26 -25 -25 -25 -25 -26 -27 -22 -19 -19 -20 -22 -23 -23 -24 -24 -21 -21 -21 -21 -21 -19 -19 -19 -19 -20 
-17 -16 -16 -16 -18 -20 -21 -21 -20 -19 -18 -17 -15 -13 -12 -13 -15 -20 -28 -43 -57 -61 -45 -30 -24 -23 -26 -31 -30 -30 -29 -28 -28 -27 -27 -26 -25 -25 -25 -26 -26 -23 -22 -21 -21 -22 -22 -22 -22 -22 -21 -21 -21 -21 -20 -20 -20 -20 -20 -20 
-18 -16 -15 -15 -17 -20 -22 -23 -22 -22 -22 -20 -19 -17 -14 -11 -12 33 30 -34 -50 -61 -49 -33 -23 -18 15 -32 -35 9 -31 -29 -28 -27 -27 -26 -25 -24 -24 -24 -24 -23 -23 -22 -22 -21 -21 -21 -21 -21 -21 -21 -21 -21 -21 -20 -20 -21 -21 -21 
