ncols        60
nrows        43
xllcorner    122.350000000000
yllcorner    30.620833333333
cellsize     0.004166666667
NODATA_value -32767
-11 -11 -11 -11 -11 -11 -12 -12 -12 -13 -13 -14 -14 -15 -15 -15 -15 -15 -17 -19 -21 -23 -21 -20 -20 -20 -20 -21 -23 -24 -23 -21 -18 -18 -18 -17 -16 -16 -16 -15 -15 -15 -15 -16 -16 -17 -18 -18 -18 -19 -21 -23 -26 -30 -33 -36 -40 -45 -49 -45 
-11 -11 -11 -11 -11 -11 -11 -12 -13 -13 -14 -14 -15 -15 -15 -15 -15 -16 -18 -22 -27 -32 -33 -30 -26 -23 -22 -24 -26 -28 -29 -27 -23 -21 -20 -18 -17 -16 -15 -15 -15 -15 -15 -15 -16 -17 -17 -17 -17 -17 -19 -22 -25 -28 -31 -33 -37 -41 -43 -43 
-11 -12 -12 -11 -11 -12 -12 -13 -13 -14 -14 -15 -15 -16 -16 -16 -16 -16 -18 -23 -29 -36 -39 -35 -29 -25 -23 -24 -27 -30 -32 -29 -24 -22 -20 -18 -17 -15 -15 -15 -15 -15 -15 -15 -16 -17 -17 -17 -17 -17 -18 -21 -23 -26 -28 -31 -34 -37 -39 -40 
-11 -12 -12 -12 -13 -14 -15 -15 -15 -16 -17 -17 -16 -16 -16 -16 -16 -17 -20 -23 -26 -28 -30 -29 -27 -25 -23 -25 -31 -34 -31 -28 -24 -21 -18 -17 -16 -15 -15 -15 -15 -15 -15 -15 -16 -16 -17 -17 -18 -18 -20 -21 -22 -24 -26 -28 -31 -34 -36 -36 
-11 -11 -12 -13 -15 -18 -19 -19 -19 -21 -21 -19 -17 -15 -15 -16 -17 -18 -20 -23 -23 -19 -13 -15 -23 -26 -27 -32 -21 -23 -36 -27 -22 -18 -16 -16 -16 -15 -15 -15 -15 -15 -15 -15 -15 -16 -16 -17 -18 -18 -19 -20 -21 -22 -24 -26 -29 -32 -34 -33 
-10 -11 -12 -14 -17 -19 -20 -20 -21 -22 -21 -18 -15 -14 -14 -15 -16 -17 -19 -21 -20 -17 -12 -20 -31 -32 -35 -41 -29 -31 -39 -25 -20 -16 -14 -15 -15 -15 -14 -14 -14 -14 -14 -14 -15 -15 -15 -16 -17 -17 -17 -18 -19 -20 -22 -24 -27 -30 -32 -32 
-10 -10 -12 -14 -17 -19 -20 -19 -21 -22 -18 -14 -12 -12 -12 -13 -14 -14 -16 -17 -18 -19 -24 -32 -24 -22 -40 -47 -51 -50 -37 -25 -20 -16 -14 -14 -13 -13 -13 -13 -14 -13 -13 -14 -14 -14 -15 -15 -15 -15 -16 -17 -18 -19 -21 -23 -25 -27 -29 -29 
-10 -10 -12 -14 -17 -19 -18 -15 -18 -7 -1 -11 -9 -9 -10 -11 -11 -11 -12 -14 -16 -21 -9 -11 -12 -6 -39 -60 -53 -46 -36 -27 -21 -16 -14 -13 -12 -11 -11 -12 -13 -13 -13 -14 -14 -14 -15 -15 -15 -15 -15 -16 -17 -19 -20 -21 -23 -25 -27 -28 
-9 -10 -11 -12 -15 -18 -21 -19 8 21 0 -7 -7 -7 -8 -8 -8 -8 -8 -10 -12 -20 -12 -11 -17 -8 -30 -52 -46 -40 -33 -25 -19 -14 -12 -11 -10 -8 -8 -10 -12 -13 -14 -14 -14 -13 -14 -14 -14 -15 -15 -16 -17 -17 -18 -20 -22 -24 -26 -27 
-9 -9 -9 -8 -10 -15 -19 -22 35 46 -3 -6 -6 -7 -7 -8 -8 -7 -7 -7 -8 -14 -23 -13 -5 -15 -19 -25 -29 -29 -26 -21 -16 -12 -10 -10 -9 -6 -6 -9 -11 -13 -14 -14 -14 -13 -13 -14 -14 -15 -15 -16 -16 -17 -18 -20 -22 -23 -25 -26 
-8 -8 -7 -6 -7 -8 -8 -10 26 35 -2 -7 -6 -7 -9 -10 -9 -8 -7 -6 -5 -6 -9 12 36 40 24 -4 -17 -20 -20 -17 -14 -11 -10 -9 -8 -7 -7 -9 -11 -12 -13 -13 -13 -13 -13 -13 -14 -15 -15 -16 -16 -17 -18 -19 -21 -23 -24 -26 
-8 -8 -7 -7 -6 -5 -3 -3 4 1 -7 -7 -7 -9 -12 -13 -11 -8 -6 -4 -3 -2 -4 15 57 75 53 14 -9 -14 -16 -14 -12 -11 -10 -10 -9 -8 -9 -10 -12 -12 -13 -13 -13 -14 -14 -13 -14 -14 -15 -15 -15 -16 -17 -18 -20 -22 -23 -25 
-8 -8 -7 -7 -6 -5 -5 -6 0 0 -9 -8 -8 -11 -18 -18 -12 -7 -4 -5 -6 6 6 3 26 28 21 11 -3 -7 -9 -10 -10 -10 -10 -9 -10 -11 -11 -12 -12 -12 -12 -12 -13 -14 -13 -14 -14 -14 -14 -15 -15 -16 -17 -18 -19 -21 -22 -24 
-8 -8 -7 -7 -7 -8 -9 -13 -6 -8 -16 -13 -10 -11 -16 -16 -8 3 8 13 17 23 12 -3 2 2 0 -1 -2 -3 -4 -6 -7 -8 -8 -9 -9 -11 -12 -13 -13 -11 -10 -11 -12 -13 -12 -13 -14 -14 -14 -15 -15 -16 -17 -18 -19 -20 -21 -22 
-8 -8 -8 -8 -8 -8 -10 -15 -25 -28 -22 -16 -11 -10 -10 -9 -5 3 5 28 49 41 27 8 -1 -2 -3 -3 -3 -3 -4 -5 -5 -6 -7 -8 -9 -10 -11 -12 -11 -11 -11 -12 -13 -11 -10 -11 -13 -14 -14 -15 -15 -16 -16 -17 -18 -19 -20 -21 
-9 -8 -8 -8 -8 -9 -10 -15 -24 -28 -22 -14 -8 -6 -5 -5 -6 -7 -6 12 29 41 56 31 0 -6 -8 -5 -3 -3 -3 -4 -4 -5 -6 -7 -8 -10 -10 -10 -12 -15 -18 -18 -18 -10 -4 -9 -12 -13 -14 -14 -15 -15 -16 -16 -17 -18 -19 -20 
-9 -8 -8 -8 -9 -10 -11 -12 -15 -15 -12 -8 -5 -3 -2 -2 -4 -5 -2 3 7 38 59 29 5 0 -4 -2 -2 -2 -2 -3 -3 -4 -5 -6 -7 -7 -6 -8 -15 -20 -23 -22 -20 -11 -6 -12 -15 -15 -15 -15 -15 -15 -16 -16 -17 -18 -18 -20 
-9 -9 -9 -9 -9 -9 -9 -8 -8 -6 -4 -4 -3 -2 -1 -1 -3 -4 -1 6 13 44 48 21 12 23 36 15 0 -1 -2 -2 -3 -4 -6 -3 -6 -9 -4 -4 -13 -9 4 4 -8 -16 -15 -17 -18 -17 -16 -15 -15 -16 -16 -17 -18 -18 -19 -20 
-10 -9 -9 -9 -9 -8 -7 -6 -5 -4 -3 -3 -3 -2 -1 -2 -4 -8 -4 6 16 50 61 37 27 33 48 36 10 -3 -4 -1 -2 -5 -9 -8 6 20 7 -3 10 29 55 36 -9 -18 -19 -18 -18 -17 -16 -16 -16 -16 -16 -17 -18 -19 -19 -20 
-10 -10 -10 -10 -9 -8 -7 -6 -5 -4 -3 -3 -3 -2 -2 -2 -4 -7 -2 10 18 57 93 92 70 32 17 20 12 0 -3 -2 -2 -4 -8 -14 31 59 16 7 41 39 30 14 -14 -15 -18 -17 -17 -16 -16 -15 -15 -16 -16 -17 -17 -18 -19 -19 
-11 -11 -11 -10 -10 -9 -8 -7 -6 -5 -4 -4 -3 -2 -3 -2 0 2 9 15 20 65 94 109 111 50 8 2 6 8 5 13 21 13 19 20 57 87 53 45 60 29 -11 -8 -7 -10 -13 -15 -16 -16 -16 -15 -15 -15 -15 -16 -17 -17 -18 -19 
-12 -12 -12 -11 -11 -10 -9 -8 -7 -6 -6 -5 -4 -5 -5 -3 2 13 14 32 60 76 57 51 98 77 28 48 60 38 20 38 69 78 66 31 47 76 70 46 54 57 27 10 -5 -8 -7 -9 -15 -16 -15 -14 -14 -14 -14 -15 -16 -17 -17 -18 
-13 -13 -13 -12 -12 -11 -10 -9 -8 -7 -6 -5 -5 -6 -6 -3 3 16 52 106 100 58 30 30 68 58 52 81 73 42 17 19 74 106 50 2 17 25 23 14 18 51 66 30 -7 -8 -6 -8 -14 -15 -15 -14 -14 -14 -14 -15 -16 -16 -17 -18 
-14 -14 -13 -13 -13 -13 -12 -10 -9 -8 -6 -5 -4 -4 -4 -1 2 13 69 101 54 27 16 30 45 17 27 32 13 7 2 -5 34 46 2 0 16 13 2 2 0 11 31 13 -6 -6 -8 -11 -12 -13 -14 -14 -14 -14 -14 -15 -16 -16 -17 -17 
-14 -15 -15 -14 -15 -15 -14 -12 -10 -9 -7 -6 -5 -4 -4 -2 0 7 24 18 6 10 6 12 13 15 9 -7 -6 -5 -4 -4 2 0 -6 0 6 4 -1 -3 -3 -5 -8 -8 -7 -7 -8 -10 -11 -13 -15 -15 -15 -15 -15 -15 -16 -16 -16 -17 
-15 -16 -16 -16 -17 -17 -16 -15 -13 -11 -9 -7 -6 -7 -6 -4 -1 -1 -1 1 2 0 0 -1 -6 11 10 -9 -6 -7 -9 -6 -6 -7 -7 -6 -7 -8 -8 -7 -7 -9 -10 -9 -9 -8 -9 -10 -12 -15 -17 -17 -16 -15 -15 -15 -15 -16 -16 -17 
-15 -16 -17 -18 -18 -19 -19 -18 -17 -15 -12 -8 -6 -6 -5 -4 -4 6 7 -1 -1 -3 -4 -4 -7 -6 -9 -13 -9 -10 -11 -9 -8 -9 -9 -7 -7 -8 -9 -7 -8 -10 -11 -10 -9 -9 -10 -11 -14 -17 -19 -19 -18 -17 -17 -17 -16 -16 -17 -16 
-16 -17 -18 -18 -19 -20 -21 -21 -21 -21 -19 -13 -7 -3 -2 -3 0 10 5 -4 -4 -6 -7 -8 -8 -10 -13 -13 -12 -12 -12 -11 -9 -8 -8 -7 -6 -6 -7 -7 -8 -10 -10 -9 -8 -10 -11 -13 -14 -17 -18 -18 -18 -20 -21 -19 -18 -18 -18 -17 
-17 -18 -19 -19 -20 -22 -24 -24 -24 -28 -31 -26 -15 -6 -5 0 11 6 -4 -4 -6 -16 -18 -13 -9 -6 -6 -8 -11 -14 -15 -13 -10 -8 -7 -7 -7 -6 -7 -8 -9 -11 -10 -8 -8 -10 -11 -12 -15 -10 -10 -14 -15 -23 -25 -22 -21 -21 -20 -19 
-18 -20 -20 -21 -22 -24 -26 -27 -30 -38 -48 -45 -31 -4 26 19 -1 10 26 6 -16 -22 -22 -16 -10 -7 -5 -8 -12 -17 -9 -6 -11 -8 -8 -8 -8 -7 -7 -8 -8 -11 -13 -9 -6 -7 -7 -7 -1 14 13 -2 -12 -21 -25 -22 -21 -21 -20 -19 
-19 -20 -21 -22 -22 -23 -26 -31 -37 -46 -56 -56 -43 -15 22 11 -20 -9 8 -12 -32 -25 -20 -16 -13 -11 -10 -11 -12 -14 -7 -1 -7 -9 -9 -9 -9 -9 -8 -8 -9 2 23 12 -8 -4 -2 -1 3 53 87 38 -5 -17 -22 -22 -19 -19 -19 -19 
-19 -20 -21 -22 -22 -23 -26 -32 -38 -45 -53 -58 -53 -43 -30 -24 -29 -33 -35 -36 -32 -25 -19 -16 -16 -16 -15 -15 -14 -11 -11 -8 -9 -14 -13 -12 -11 -10 -10 -9 -10 0 36 37 11 -2 -10 6 14 82 153 108 36 -1 0 3 -10 -17 -18 -20 
-18 -19 -20 -21 -23 -24 -27 -31 -36 -42 -50 -59 -63 -64 -60 -50 -44 -40 -32 -25 -23 -19 -18 -19 -20 -22 -22 -21 -18 -13 -9 -12 -21 -22 -18 -14 -13 -12 -12 -12 -12 -15 -3 9 24 16 -8 15 66 85 89 112 100 52 28 14 -5 -15 -19 -20 
-17 -18 -19 -20 -22 -23 -25 -29 -33 -39 -46 -55 -63 -71 -71 -63 -55 -48 -36 -25 -18 -15 -19 -23 -26 -27 -27 -25 -22 -17 -13 -15 -23 -24 -19 -15 -13 -13 -14 -16 -17 -16 -15 -16 0 9 7 23 89 100 28 36 63 41 12 -6 -11 -14 -18 -19 
-17 -18 -19 -19 -20 -21 -23 -26 -30 -35 -42 -50 -56 -62 -65 -64 -63 -60 -53 -42 -31 -26 -26 -30 -33 -32 -30 -27 -25 -22 -20 -19 -20 -18 -15 -14 -12 -13 -17 -23 -22 -20 -17 -14 -14 -14 8 34 60 82 50 4 -8 -9 -13 -15 -13 -14 -16 -17 
-17 -18 -18 -18 -19 -19 -21 -24 -25 -28 -34 -41 -47 -53 -58 -63 -69 -78 -76 -65 -57 -43 -32 -35 -38 -37 -33 -28 -26 -24 -22 -21 -19 -16 -14 -13 -12 -13 0 2 -17 -22 -20 -18 -16 -16 -6 11 11 19 51 36 -5 -18 -12 -10 -16 -15 -16 -17 
-16 -17 -18 -18 -17 -18 -12 -15 -23 -22 -25 -30 -35 -41 -49 -56 -68 -85 -88 -75 -65 -49 -36 -37 -40 -40 -36 -31 -28 -26 -24 -23 -21 -19 -17 -15 -14 -16 18 33 -5 -20 -19 -19 -18 -18 -18 -16 -13 -9 14 22 -3 -18 -11 -8 -15 -15 -16 -16 
-15 -16 -16 -16 -15 -17 -11 -13 -20 -19 -20 -22 -24 -29 -35 -42 -52 -66 -72 -64 -54 -44 -38 -38 -41 -41 -38 -33 -29 -27 -27 -26 -24 -22 -20 -18 -16 -15 1 11 2 -8 -16 -17 -18 -18 -18 -17 -16 -14 -15 -14 -12 -14 -14 -13 -14 -15 -16 -16 
-15 -15 -16 -16 -15 -16 -18 -18 -16 -15 -15 -16 -17 -19 -21 -23 -25 -35 -48 -49 -41 -34 -32 -33 -38 -41 -38 -34 -30 -30 -32 -31 -27 -24 -22 -21 -19 -17 -16 -13 -5 -8 -16 -17 -18 -19 -19 -19 -19 -20 -19 -17 -16 -16 -16 -15 -15 -16 -17 -17 
-15 -16 -17 -17 -17 -18 -20 -19 -15 -12 -11 -12 -12 -10 -10 -12 -12 -20 -36 -45 -41 -34 -26 -22 -29 -36 -35 -31 -29 -29 -32 -31 -28 -25 -24 -23 -22 -21 -22 -24 -23 -19 -17 -18 -19 -20 -21 -20 -20 -20 -20 -19 -19 -20 -19 -17 -17 -17 -18 -18 
-16 -16 -17 -18 -18 -19 -21 -20 -17 -14 -13 -13 -11 -9 -9 -6 -7 -19 -34 -54 -60 -50 -33 -15 -15 -25 -29 -25 -23 -27 -28 -27 -26 -25 -25 -24 -24 -24 -26 -29 -27 -22 -19 -19 -20 -21 -21 -21 -21 -21 -20 -20 -21 -21 -20 -19 -19 -19 -19 -19 
-17 -17 -17 -17 -18 -19 -21 -20 -19 -18 -17 -16 -15 -13 -12 0 1 -11 -26 -52 -67 -71 -55 -26 -14 -19 -30 -32 -28 -30 -28 -27 -26 -27 -26 -25 -24 -24 -25 -25 -25 -22 -21 -21 -21 -21 -21 -21 -21 -20 -20 -20 -21 -21 -20 -20 -20 -20 -20 -20 
-17 -16 -15 -15 -18 -20 -22 -23 -22 -22 -22 -21 -21 -20 -15 -3 6 24 16 -27 -53 -67 -61 -36 -20 -15 -11 -23 -39 -38 -31 -26 -26 -27 -27 -25 -24 -23 -23 -23 -23 -23 -22 -22 -21 -21 -21 -20 -20 -20 -20 -20 -20 -20 -20 -20 -20 -20 -20 -20 
