ncols        60
nrows        43
xllcorner    122.350000000000
yllcorner    30.620833333333
cellsize     0.004166666667
NODATA_value -32767
-11 -11 -11 -11 -12 -12 -12 -13 -13 -13 -13 -14 -15 -15 -15 -15 -15 -15 -17 -20 -24 -26 -22 -16 -17 -18 -19 -20 -21 -18 -18 -21 -21 -20 -20 -19 -18 -17 -16 -16 -16 -16 -16 -16 -16 -17 -18 -18 -19 -20 -21 -24 -28 -31 -34 -37 -40 -44 -45 -38 
-12 -12 -12 -12 -12 -12 -12 -13 -14 -14 -14 -15 -15 -16 -16 -16 -16 -17 -18 -23 -28 -31 -29 -25 -23 -23 -22 -22 -24 -15 -20 -26 -25 -22 -21 -19 -18 -17 -16 -16 -16 -15 -15 -16 -17 -17 -18 -18 -19 -19 -20 -23 -25 -28 -31 -33 -36 -40 -44 -47 
-12 -12 -12 -12 -13 -13 -13 -14 -14 -15 -16 -16 -16 -16 -16 -16 -16 -17 -18 -24 -30 -36 -35 -33 -29 -26 -23 -17 -9 0 -16 -32 -27 -22 -21 -19 -18 -17 -16 -16 -16 -15 -15 -16 -17 -18 -18 -18 -19 -19 -20 -22 -23 -25 -27 -29 -31 -34 -37 -41 
-12 -12 -13 -13 -14 -15 -15 -15 -14 -16 -18 -17 -16 -16 -16 -16 -16 -17 -18 -23 -28 -34 -36 -38 -31 -27 -23 -12 0 0 -11 -21 -22 -19 -18 -17 -17 -17 -16 -16 -16 -16 -16 -16 -16 -17 -17 -18 -19 -20 -21 -22 -23 -24 -26 -27 -29 -32 -34 -35 
-12 -12 -13 -14 -16 -17 -18 -17 -17 -18 -21 -20 -18 -16 -16 -15 -16 -17 -19 -22 -25 -27 -26 -21 -21 -23 -25 -10 0 0 -8 -15 -17 -16 -15 -16 -16 -16 -15 -15 -15 -15 -16 -16 -16 -17 -17 -18 -18 -19 -20 -21 -22 -23 -24 -26 -27 -30 -32 -34 
-11 -12 -13 -15 -17 -18 -18 -17 -17 -17 -23 -21 -18 -16 -15 -15 -15 -16 -18 -22 -25 -26 -21 -5 -10 -12 -11 0 0 0 -10 -15 -16 -15 -14 -15 -16 -16 -15 -15 -15 -15 -15 -15 -16 -16 -16 -17 -18 -18 -19 -19 -20 -21 -22 -24 -25 -28 -30 -32 
-11 -11 -12 -14 -17 -19 -15 -15 -17 -13 -30 -23 -16 -14 -13 -13 -13 -13 -16 -21 -28 -36 -43 -37 -19 -10 -11 0 0 -48 -28 -21 -17 -15 -13 -13 -14 -14 -14 -14 -14 -14 -14 -15 -15 -15 -15 -16 -16 -17 -17 -17 -18 -20 -21 -23 -24 -27 -29 -30 
-10 -11 -11 -11 -11 -11 -7 -10 -21 1 0 -23 -11 -9 -10 -11 -11 -11 -13 -19 -27 -35 2 0 -3 0 -29 -62 -43 -49 -36 -26 -19 -15 -12 -11 -12 -12 -12 -13 -13 -14 -14 -14 -14 -14 -14 -15 -15 -16 -16 -17 -18 -19 -20 -22 -23 -25 -28 -29 
-10 -10 -10 -9 -8 -4 0 0 -38 0 4 0 -4 -7 -8 -9 -9 -9 -10 -14 -18 -17 0 0 -10 -10 -28 -41 -39 -40 -33 -24 -18 -14 -11 -11 -10 -9 -9 -11 -12 -13 -14 -14 -14 -14 -14 -14 -15 -15 -16 -16 -17 -18 -19 -21 -22 -24 -26 -27 
-9 -9 -9 -8 -7 -3 0 1 0 30 0 -5 -5 -7 -8 -8 -8 -8 -7 -8 -11 -12 0 0 0 -9 -31 -20 -22 -29 -26 -20 -14 -12 -10 -9 -8 -7 -6 -9 -11 -13 -14 -15 -14 -14 -14 -14 -14 -15 -16 -16 -17 -18 -19 -20 -22 -23 -24 -26 
-9 -9 -8 -8 -7 -3 0 0 0 42 0 -7 -7 -8 -9 -10 -10 -8 -7 -6 -6 -5 4 9 0 0 0 1 -4 -15 -19 -16 -13 -12 -10 -10 -9 -8 -7 -9 -11 -13 -13 -14 -14 -14 -14 -14 -14 -15 -16 -16 -17 -18 -19 -20 -22 -22 -24 -25 
-9 -8 -8 -7 -7 -5 -2 -3 -11 12 -4 -6 -7 -7 -11 -15 -13 -10 -9 -5 -3 -3 -1 5 0 79 55 0 0 -7 -13 -13 -12 -11 -11 -10 -11 -11 -10 -11 -12 -13 -13 -13 -14 -14 -14 -14 -15 -15 -16 -16 -16 -17 -18 -20 -22 -21 -22 -24 
-9 -8 -8 -8 -7 -7 -5 -4 -3 14 -11 -7 -9 -12 -17 -22 -14 -10 -14 -9 -3 -5 -14 0 43 35 35 0 1 -4 -8 -10 -10 -10 -10 -10 -10 -11 -11 -11 -11 -12 -11 -13 -14 -14 -14 -15 -15 -15 -15 -16 -16 -17 -18 -19 -20 -21 -22 -24 
-9 -8 -8 -8 -8 -9 -9 -12 -10 4 -9 -10 -11 -12 -15 -15 -8 0 6 8 12 12 0 1 6 2 0 1 1 -5 -7 -8 -8 -8 -9 -9 -10 -11 -12 -12 -11 -10 -10 -13 -15 -15 -15 -14 -15 -15 -15 -15 -15 -16 -17 -18 -19 -20 -21 -23 
-9 -8 -8 -8 -9 -10 -13 -22 -31 0 -18 -14 -11 -11 -12 -13 -5 2 4 20 0 38 30 3 2 -5 -4 -1 -2 -4 -5 -6 -6 -7 -7 -8 -9 -12 -13 -14 -10 -11 -15 -17 -17 -17 -14 -14 -14 -14 -14 -15 -15 -15 -16 -17 -18 -19 -20 -22 
-9 -9 -9 -9 -9 -9 -11 -17 -19 -8 -13 -11 -8 -7 -7 -7 -4 -1 4 7 22 39 57 24 0 -2 -3 -2 -3 -3 -4 -4 -5 -6 -6 -7 -7 -9 -10 -9 -7 -8 -17 -21 -20 -19 -12 -11 -13 -14 -14 -15 -15 -15 -16 -17 -18 -19 -19 -21 
-9 -9 -9 -9 -9 -10 -11 -13 -12 -7 -7 -6 -5 -4 -4 -3 -4 -4 -3 2 5 14 68 40 7 2 1 1 1 -1 -3 -3 -4 -5 -6 -5 -7 -8 -7 -5 0 0 -19 -19 -20 -14 -2 -8 -13 -14 -15 -15 -15 -15 -16 -17 -18 -18 -19 -20 
-10 -9 -9 -9 -9 -9 -9 -9 -8 -7 -6 -5 -4 -3 -3 -3 -5 -6 -8 -1 6 28 52 22 12 9 23 1 3 -1 -3 -3 -3 -5 -10 -12 -12 -5 -4 -3 5 0 0 -24 -26 -22 -14 -15 -18 -17 -16 -16 -16 -16 -16 -17 -18 -19 -19 -20 
-10 -10 -9 -9 -9 -9 -8 -7 -7 -6 -4 -4 -4 -2 -2 -2 -4 -6 -11 -5 0 0 68 65 19 46 62 0 2 -2 -3 -3 -2 -2 -15 -20 0 0 0 0 2 0 0 0 -41 -30 -20 -19 -18 -18 -17 -16 -16 -16 -16 -17 -18 -19 -19 -20 
-11 -10 -10 -10 -10 -9 -8 -7 -6 -5 -4 -4 -3 -3 -2 -2 -2 -1 -7 -5 0 0 73 85 43 40 22 29 4 -2 -2 -4 -5 -4 -19 -23 21 59 0 1 0 32 41 0 -17 -22 -20 -18 -18 -17 -17 -16 -16 -16 -16 -17 -18 -18 -19 -19 
-11 -11 -11 -10 -10 -10 -9 -8 -7 -6 -5 -4 -3 -3 -3 -3 -2 -4 -10 -11 6 0 94 124 114 34 14 7 6 1 0 -8 -9 -1 1 3 31 90 17 27 88 0 0 -3 -7 -18 -16 -16 -16 -16 -16 -16 -15 -15 -16 -16 -17 -18 -19 -19 
-13 -12 -12 -11 -11 -11 -10 -9 -8 -7 -6 -5 -5 -5 -4 -2 -1 -5 -21 -39 13 73 78 72 134 86 19 23 44 28 22 37 43 44 63 35 52 94 85 41 85 24 -2 -15 0 0 -10 -11 -14 -16 -16 -15 -15 -15 -15 -16 -16 -17 -18 -19 
-13 -13 -13 -12 -12 -12 -11 -10 -9 -8 -7 -6 -5 -5 -3 -2 0 0 0 0 110 72 33 18 84 80 64 106 86 56 17 33 52 123 54 5 28 25 42 22 22 70 56 0 1 0 0 -8 -14 -15 -15 -15 -14 -14 -14 -15 -16 -17 -17 -18 
-14 -14 -14 -14 -14 -14 -14 -12 -11 -9 -8 -7 -6 -4 -4 -3 0 0 79 117 69 33 35 27 74 23 37 63 17 11 2 1 47 0 0 1 0 22 1 5 0 20 35 23 0 -7 -5 -9 -12 -14 -14 -14 -13 -14 -14 -15 -16 -17 -17 -18 
-15 -15 -15 -15 -16 -16 -16 -15 -13 -11 -9 -8 -7 -7 -6 -3 0 3 39 31 10 4 0 18 22 13 5 2 -2 0 -2 0 0 0 0 0 0 0 0 0 -1 -1 0 0 -1 -7 -8 -10 -11 -13 -13 -13 -14 -14 -15 -16 -16 -17 -17 -18 
-15 -15 -16 -17 -17 -18 -18 -17 -15 -12 -8 -7 -7 -8 -6 -5 0 0 4 2 -3 -1 0 2 0 25 15 -12 -7 -7 -7 -4 -2 -1 -5 -4 -4 -7 -5 -3 -5 -6 -8 -5 -5 -7 -10 -11 -12 -12 -11 -12 -13 -15 -16 -16 -16 -17 -16 -17 
-16 -17 -17 -18 -18 -19 -20 -20 -19 -16 -12 -7 -4 -3 -2 0 0 0 7 0 -3 -5 0 0 1 0 0 -9 -6 -13 -11 -8 -7 -5 -7 -6 -6 -6 -6 -6 -7 -9 -11 -9 -7 -9 -11 -12 -12 -10 -7 -11 -15 -18 -18 -17 -17 -17 -17 -17 
-17 -18 -18 -18 -19 -21 -22 -24 -25 -22 -20 -12 -5 0 0 0 0 5 9 7 0 -4 -6 0 0 -7 -17 -16 0 0 -12 -7 -7 -8 -8 -7 -7 -8 -8 -8 -9 -11 -12 -11 -8 -10 -11 -12 -10 -9 0 -7 -14 -22 -19 -18 -18 -18 -18 -17 
-18 -19 -19 -19 -19 -21 -24 -26 -28 -27 -33 -20 -5 -4 5 0 0 0 1 7 -3 -10 -13 -9 -6 -7 -9 -5 1 1 -3 -3 -6 -9 -8 -8 -8 -8 -8 -9 -10 -11 -15 -14 -10 -8 -10 -12 -10 2 0 -5 -11 -20 -14 -16 -20 -20 -19 -18 
-19 -20 -20 -21 -21 -22 -25 -31 -38 -48 -60 -29 0 0 5 0 0 0 0 0 -8 -17 -25 -18 -11 -7 -8 -6 0 0 0 0 -8 -9 -8 -8 -8 -8 -9 -8 -10 -12 -19 -19 -10 -5 -3 0 0 0 1 -9 -2 0 0 -11 -22 -21 -20 -19 
-19 -20 -21 -22 -22 -23 -26 -34 -40 -46 -46 -23 0 0 43 0 0 0 0 0 -9 -14 -18 -17 -15 -12 -13 -13 -6 0 0 0 -20 -12 -10 -9 -9 -8 -8 -8 -9 2 11 2 -7 -8 -4 0 0 0 45 22 1 0 0 -5 -11 -17 -20 -20 
-19 -20 -21 -22 -23 -23 -24 -35 -40 -44 -41 -24 0 0 0 -4 0 0 -2 -4 -11 -15 -18 -19 -19 -18 -18 -17 -13 -11 4 0 -20 -10 -11 -11 -11 -10 -8 -7 -7 0 75 0 1 -12 -4 1 2 89 153 70 8 -13 0 1 0 -10 -18 -21 
-18 -19 -21 -22 -24 -24 -27 -34 -39 -44 -44 -37 -30 -36 -34 -28 -23 -21 -26 -16 -14 -15 -19 -22 -24 -24 -24 -21 -17 -11 0 0 -15 -16 -15 -15 -12 -11 -9 -9 -5 0 18 0 0 0 0 28 52 81 143 122 93 21 15 20 0 -10 -18 -21 
-18 -19 -20 -21 -23 -24 -26 -31 -37 -44 -45 -45 -48 -58 -66 -53 -43 -40 -34 -22 -18 -19 -24 -28 -30 -30 -29 -26 -23 -17 -13 -15 -28 -23 -19 -17 -13 -10 -10 -14 -12 -6 1 0 0 0 -3 7 101 79 34 58 102 59 24 9 -6 -13 -18 -21 
-18 -19 -20 -20 -21 -21 -23 -27 -32 -38 -41 -46 -53 -63 -67 -61 -55 -49 -43 -26 -24 -25 -31 -37 -36 -35 -33 -29 -26 -22 -20 -19 -22 -19 -17 -15 -12 -6 -8 -24 -21 -19 -14 -9 -5 -10 0 15 80 110 17 6 0 0 0 -4 -8 -15 -20 -20 
-17 -18 -19 -19 -19 -20 -21 -24 -27 -31 -37 -44 -51 -58 -63 -65 -61 -59 -57 -47 -41 -36 -39 -41 -40 -38 -36 -31 -28 -24 -22 -21 -19 -15 -15 -15 -12 0 1 0 -24 -19 -17 -14 -8 0 3 2 25 20 62 9 0 1 -3 -2 -6 -15 -19 -19 
-17 -18 -18 -18 -18 -19 -19 -21 -22 -25 -29 -35 -41 -46 -50 -54 -56 -65 -74 -66 -60 -62 -52 -46 -43 -41 -39 -34 -30 -27 -24 -22 -20 -18 -17 -15 -10 1 0 0 0 -10 -17 -17 -17 -18 -7 0 0 0 14 0 5 -13 -12 0 0 0 -16 -18 
-17 -17 -17 -17 -18 -18 -18 -19 -19 -19 -21 -26 -31 -33 -35 -37 -40 -56 -87 -71 -56 -52 -47 -45 -44 -43 -41 -37 -32 -28 -26 -25 -23 -22 -21 -19 -18 -15 12 4 0 -13 -15 -18 -20 -23 -17 -15 -18 -9 5 0 0 -13 -15 -9 -8 -8 -15 -17 
-16 -15 -16 -16 -16 -15 -17 -18 -17 -14 -15 -17 -18 -17 -17 -16 -8 -15 -45 -43 -33 -37 -38 -40 -42 -42 -40 -37 -32 -29 -29 -28 -26 -24 -23 -22 -21 -18 -5 0 0 -4 -10 -15 -19 -22 -21 -20 -22 -19 -11 -8 -10 -16 -18 -16 -17 -15 -17 -18 
-16 -16 -17 -17 -18 -18 -20 -22 -19 -15 -13 -13 -10 -5 -3 0 3 4 -45 -38 -36 -35 -30 -33 -40 -36 -36 -36 -32 -28 -35 -32 -28 -26 -25 -24 -23 -24 -24 -31 -19 -13 -12 -16 -19 -22 -22 -22 -22 -22 -21 -19 -21 -21 -20 -19 -19 -18 -18 -19 
-16 -16 -17 -18 -19 -19 -20 -21 -19 -17 -15 -13 -10 -3 0 0 3 0 -14 -20 -42 -38 -19 -18 -18 -18 -19 -32 -28 -18 -28 -31 -29 -27 -26 -25 -25 -26 -28 -29 -23 -20 -18 -19 -20 -22 -22 -22 -22 -24 -24 -23 -23 -22 -21 -20 -19 -19 -19 -20 
-16 -16 -17 -18 -19 -20 -20 -21 -20 -19 -18 -16 -12 -5 0 0 0 0 0 0 -69 -65 -40 -18 0 1 0 -38 -21 0 -27 -31 -30 -27 -27 -26 -25 -25 -26 -26 -25 -24 -22 -22 -22 -22 -22 -21 -21 -22 -24 -23 -22 -21 -21 -20 -20 -20 -20 -20 
-17 -18 -17 -17 -19 -21 -21 -22 -22 -23 -22 -20 -18 -13 -6 -2 0 18 15 -23 -59 -78 -51 -23 1 11 0 0 0 0 -39 -33 -30 -28 -27 -26 -24 -23 -24 -24 -24 -23 -23 -23 -22 -22 -21 -21 -21 -22 -23 -22 -22 -21 -21 -21 -21 -21 -21 -21 
