ncols        60
nrows        43
xllcorner    122.350000000000
yllcorner    30.620833333333
cellsize     0.004166666667
NODATA_value -32767
-11 -11 -11 -11 -11 -12 -12 -12 -13 -13 -13 -13 -14 -14 -14 -14 -14 -14 -15 -16 -18 -18 -17 -16 -17 -17 -18 -19 -20 -21 -20 -19 -17 -17 -16 -16 -16 -16 -16 -16 -16 -16 -16 -17 -17 -18 -18 -19 -19 -20 -22 -24 -28 -32 -36 -40 -44 -50 -54 -49 
-11 -11 -11 -11 -11 -12 -12 -12 -13 -13 -14 -14 -15 -15 -15 -15 -15 -16 -17 -19 -22 -24 -24 -24 -22 -21 -21 -22 -23 -20 -23 -24 -21 -19 -19 -18 -17 -17 -16 -16 -16 -16 -16 -16 -17 -17 -18 -18 -19 -19 -20 -23 -26 -29 -31 -35 -38 -43 -47 -46 
-11 -12 -12 -12 -12 -12 -12 -13 -13 -14 -14 -15 -15 -16 -16 -16 -16 -16 -18 -22 -26 -30 -32 -32 -28 -25 -23 -23 -20 -8 -21 -28 -25 -22 -20 -19 -17 -17 -16 -16 -15 -15 -15 -16 -17 -17 -18 -18 -18 -18 -19 -22 -24 -26 -29 -32 -35 -39 -42 -43 
-12 -12 -12 -12 -12 -13 -13 -14 -14 -15 -16 -16 -16 -16 -16 -16 -16 -17 -19 -23 -27 -30 -33 -34 -30 -26 -24 -23 -7 -1 -22 -30 -26 -23 -21 -19 -17 -16 -16 -16 -15 -15 -15 -16 -16 -17 -17 -18 -18 -18 -19 -21 -23 -25 -27 -29 -32 -35 -38 -39 
-12 -12 -12 -13 -14 -15 -16 -17 -17 -18 -18 -18 -17 -16 -16 -16 -17 -18 -20 -23 -25 -26 -25 -25 -25 -26 -25 -25 -5 -4 -22 -30 -26 -22 -19 -17 -17 -16 -16 -16 -16 -16 -16 -16 -16 -16 -17 -17 -18 -18 -19 -21 -22 -23 -25 -27 -30 -33 -35 -36 
-11 -12 -12 -14 -15 -17 -18 -19 -19 -20 -20 -19 -17 -16 -16 -16 -17 -18 -20 -23 -23 -22 -19 -18 -22 -26 -27 -26 -5 -1 -23 -31 -25 -20 -17 -16 -16 -16 -15 -15 -16 -16 -15 -16 -16 -16 -16 -17 -18 -18 -19 -20 -21 -22 -23 -26 -29 -32 -34 -34 
-11 -11 -12 -14 -16 -18 -20 -21 -21 -18 -17 -18 -16 -15 -15 -15 -16 -17 -19 -21 -21 -19 -14 -14 -24 -25 -31 -10 -6 -19 -34 -31 -24 -18 -16 -15 -15 -15 -15 -15 -15 -15 -15 -15 -15 -15 -16 -16 -17 -17 -18 -18 -20 -20 -22 -24 -26 -29 -32 -32 
-10 -11 -12 -14 -17 -18 -16 -16 -18 -5 27 -8 -13 -13 -13 -13 -14 -15 -16 -18 -19 -17 -3 -1 -17 -4 -27 -38 -40 -45 -42 -32 -23 -18 -15 -14 -14 -14 -13 -14 -14 -14 -14 -14 -15 -15 -15 -15 -16 -16 -16 -17 -18 -19 -20 -22 -24 -27 -29 -30 
-10 -11 -12 -14 -16 -17 -4 -2 -6 19 -1 -4 -7 -10 -10 -11 -11 -11 -12 -14 -16 -16 -4 -1 -8 -8 -29 -51 -54 -49 -41 -32 -24 -18 -15 -13 -12 -12 -11 -12 -13 -14 -14 -14 -14 -14 -15 -15 -15 -15 -16 -17 -18 -18 -19 -21 -23 -25 -27 -28 
-10 -10 -11 -12 -14 -15 -3 -5 51 63 -1 -4 -7 -8 -8 -9 -9 -9 -9 -10 -12 -15 -12 -2 -4 -7 -19 -34 -42 -41 -35 -28 -22 -16 -13 -12 -11 -9 -9 -10 -12 -13 -14 -14 -14 -14 -14 -14 -15 -15 -16 -16 -17 -18 -18 -20 -22 -24 -26 -27 
-9 -9 -9 -9 -10 -12 -12 -2 26 47 -1 -5 -7 -7 -8 -9 -9 -8 -7 -7 -8 -10 -12 -5 43 52 52 -11 -16 -28 -26 -23 -18 -14 -12 -11 -9 -8 -7 -9 -11 -13 -14 -14 -14 -14 -14 -14 -14 -15 -16 -16 -17 -17 -18 -19 -21 -23 -25 -26 
-9 -9 -8 -7 -7 -8 -8 -7 -2 19 -1 -6 -7 -8 -9 -11 -11 -9 -7 -6 -5 -6 -5 -1 52 73 50 22 -1 -10 -19 -18 -15 -13 -11 -10 -9 -8 -8 -9 -11 -12 -13 -14 -14 -14 -14 -14 -14 -15 -15 -16 -16 -17 -17 -19 -20 -22 -24 -25 
-9 -8 -8 -7 -7 -6 -5 -5 -1 26 -2 -8 -8 -9 -12 -14 -13 -8 -5 -3 -2 -2 -2 13 31 31 28 21 -1 -6 -13 -14 -13 -11 -11 -10 -10 -10 -10 -11 -12 -13 -13 -13 -14 -14 -14 -14 -14 -15 -15 -15 -16 -16 -17 -18 -20 -21 -23 -24 
-9 -8 -8 -7 -7 -6 -6 -6 -2 -1 -3 -10 -9 -10 -14 -16 -13 -3 19 21 30 19 18 -5 -2 9 -1 -1 -1 -5 -9 -10 -10 -10 -10 -10 -10 -10 -11 -12 -13 -13 -12 -13 -13 -14 -14 -14 -14 -14 -15 -15 -16 -16 -17 -18 -19 -21 -22 -24 
-9 -8 -8 -8 -8 -8 -8 -10 -9 -3 -9 -14 -11 -11 -14 -15 -11 -1 -1 26 60 44 33 3 0 -1 -2 -1 -2 -4 -5 -6 -7 -8 -9 -9 -10 -10 -11 -13 -13 -12 -12 -12 -13 -13 -13 -13 -14 -14 -15 -15 -16 -16 -17 -18 -19 -20 -21 -23 
-9 -9 -8 -8 -8 -9 -10 -13 -19 -22 -22 -18 -12 -11 -10 -10 -7 -1 -1 3 34 42 60 39 4 -1 -2 -3 -3 -4 -4 -5 -6 -7 -7 -8 -9 -10 -11 -12 -12 -11 -12 -13 -14 -13 -11 -11 -13 -14 -14 -15 -15 -16 -16 -17 -18 -19 -20 -21 
-9 -9 -8 -9 -9 -9 -10 -13 -19 -24 -22 -15 -10 -8 -6 -6 -6 -6 -5 4 15 28 64 48 15 2 -2 -2 -4 -3 -4 -4 -5 -5 -6 -7 -8 -9 -10 -10 -10 -3 -10 -18 -18 -15 -9 -9 -12 -14 -15 -15 -15 -16 -16 -17 -17 -18 -19 -20 
-9 -9 -9 -9 -9 -10 -10 -11 -14 -15 -13 -9 -6 -5 -3 -3 -4 -5 -3 6 18 43 46 23 14 13 29 -1 -1 -2 -3 -3 -4 -5 -5 -6 -7 -7 -7 -7 -8 -2 12 -10 -16 -15 -12 -12 -14 -16 -16 -15 -15 -16 -16 -17 -17 -18 -19 -20 
-10 -10 -9 -9 -9 -10 -9 -9 -9 -7 -6 -5 -4 -3 -2 -2 -3 -5 -3 8 21 47 72 61 32 43 61 55 1 -3 -2 -3 -3 -4 -6 -5 17 -3 -4 -3 -1 40 41 52 -6 -13 -15 -16 -17 -17 -17 -16 -16 -16 -16 -17 -18 -19 -19 -20 
-10 -10 -10 -10 -10 -9 -8 -7 -7 -5 -4 -4 -3 -3 -2 -2 -4 -5 -3 14 25 46 74 80 61 41 19 20 7 0 -2 -3 -2 -4 -7 -3 36 65 -1 0 41 36 -1 -1 -6 -14 -17 -18 -18 -17 -17 -16 -16 -16 -16 -17 -18 -19 -19 -20 
-11 -11 -11 -10 -10 -9 -9 -8 -7 -5 -4 -4 -3 -3 -3 -3 -3 -3 12 20 29 83 98 110 109 44 16 8 10 9 6 -1 -1 -2 25 33 44 86 38 41 73 46 -1 -1 -6 -10 -14 -17 -17 -17 -16 -16 -16 -16 -16 -17 -17 -18 -19 -20 
-12 -12 -11 -11 -10 -10 -9 -8 -7 -6 -5 -4 -4 -3 -3 -3 -2 8 17 24 46 67 70 60 117 96 27 29 54 38 25 46 67 68 70 35 45 83 82 46 59 49 -1 -2 -11 -1 -7 -14 -16 -16 -16 -16 -15 -15 -16 -16 -17 -18 -18 -19 
-13 -13 -13 -12 -11 -11 -10 -9 -8 -7 -6 -5 -5 -5 -5 -4 -1 6 42 99 114 73 37 22 66 75 64 107 85 55 19 26 53 108 60 6 21 23 32 26 23 63 68 49 19 -10 -6 -6 -13 -16 -16 -15 -15 -14 -15 -15 -16 -17 -18 -18 
-13 -14 -13 -13 -12 -12 -11 -10 -9 -8 -7 -6 -6 -6 -6 -4 -1 -1 73 101 63 29 30 33 67 20 24 48 21 5 1 -1 50 67 4 -1 23 31 1 -1 -1 19 34 34 -2 -4 -6 -8 -12 -15 -15 -15 -14 -14 -14 -15 -16 -17 -17 -18 
-14 -14 -14 -14 -14 -14 -13 -12 -10 -9 -7 -6 -5 -5 -5 -3 -1 16 31 35 18 12 12 11 10 14 9 -1 -1 -1 -1 -1 -1 -2 -2 -1 -1 -1 -1 -1 -1 -1 -2 -4 -3 -7 -8 -10 -12 -14 -15 -15 -15 -15 -15 -15 -16 -16 -17 -18 
-15 -15 -15 -15 -15 -15 -15 -14 -12 -10 -9 -7 -6 -6 -5 -4 -1 16 -1 7 1 -1 1 4 -1 26 30 -1 -7 -5 -4 -4 -2 -2 -3 -3 -4 -6 -1 -3 -4 -4 -6 -7 -8 -8 -8 -10 -12 -14 -16 -16 -16 -15 -15 -15 -16 -16 -17 -17 
-15 -16 -16 -17 -17 -18 -17 -16 -15 -13 -11 -9 -7 -5 -5 -4 -1 -1 22 0 -2 -3 4 -1 -2 -2 -4 -6 -7 -6 -8 -8 -7 -7 -7 -7 -6 -6 -7 -7 -7 -9 -10 -10 -9 -9 -9 -10 -12 -15 -14 -17 -17 -17 -16 -16 -16 -16 -17 -17 
-16 -17 -17 -18 -19 -19 -20 -19 -19 -18 -15 -12 -8 -6 -3 -1 18 0 1 -1 -2 -3 -4 -1 -4 -5 -8 -11 -3 -1 -8 -11 -9 -9 -9 -8 -7 -7 -8 -8 -8 -10 -11 -10 -10 -10 -10 -11 -14 -14 -2 -13 -19 -18 -19 -18 -18 -17 -17 -17 
-17 -18 -18 -19 -20 -21 -22 -22 -23 -23 -23 -19 -11 -6 11 -1 16 7 -1 -2 -5 -7 -10 -10 -9 -9 -10 -11 -2 -10 -8 -11 -10 -9 -8 -8 -7 -7 -7 -8 -8 -10 -10 -10 -9 -10 -11 -12 -10 -1 -9 -11 -18 -18 -19 -21 -20 -20 -19 -19 
-18 -18 -19 -20 -21 -22 -23 -24 -25 -27 -30 -26 -5 -1 27 23 -1 12 29 -17 -5 -11 -15 -15 -11 -8 -8 -8 -2 -5 -1 -5 -7 -9 -8 -8 -7 -7 -7 -8 -9 -9 -8 -7 -8 -9 -10 -3 -4 16 13 -5 -12 -4 -2 -17 -22 -21 -20 -20 
-19 -19 -20 -21 -22 -23 -25 -27 -29 -35 -43 -41 -6 19 45 -1 -1 11 -20 -49 -12 -20 -21 -19 -13 -9 -7 -8 -9 -3 -1 18 -6 -9 -8 -8 -8 -8 -8 -8 -8 7 26 24 -4 -7 -7 -2 -1 62 68 54 -1 -1 -1 -13 -17 -20 -21 -20 
-19 -20 -21 -22 -23 -23 -25 -29 -34 -42 -51 -52 -11 -1 -3 -1 -3 -1 -2 -11 -25 -28 -23 -19 -15 -12 -11 -11 -13 -9 -2 16 -4 -9 -10 -10 -10 -9 -9 -9 -8 20 68 49 -1 -2 -3 0 7 81 156 94 45 4 -1 -1 -1 -14 -20 -19 
-19 -20 -21 -22 -23 -23 -25 -29 -35 -43 -51 -56 -48 -43 -36 -32 -27 -28 -29 -31 -30 -27 -22 -19 -17 -17 -17 -16 -15 -12 -2 -4 -8 -14 -14 -13 -12 -11 -11 -11 -10 -7 -1 -1 34 32 -13 33 64 78 113 119 113 52 28 26 -1 -11 -18 -20 
-18 -19 -20 -21 -23 -24 -25 -29 -34 -40 -48 -56 -62 -63 -61 -55 -49 -43 -36 -29 -24 -21 -20 -19 -21 -22 -23 -22 -20 -16 -12 -11 -17 -21 -19 -16 -13 -13 -13 -13 -14 -12 -7 -6 -2 -1 -1 0 79 92 35 44 84 62 28 9 -3 -12 -18 -20 
-17 -18 -19 -20 -21 -22 -24 -27 -31 -37 -44 -52 -60 -64 -67 -65 -60 -53 -44 -33 -25 -21 -21 -23 -26 -28 -28 -26 -23 -21 -17 -16 -20 -22 -20 -16 -14 -13 -13 -15 -17 -17 -16 -14 -6 -2 22 28 71 98 48 -1 -1 -1 -2 -3 -9 -13 -17 -19 
-17 -18 -19 -19 -20 -20 -22 -24 -28 -32 -38 -45 -52 -57 -61 -63 -64 -65 -61 -51 -41 -35 -31 -30 -33 -34 -32 -29 -26 -24 -22 -20 -20 -19 -17 -15 -13 -2 -20 -1 -10 -19 -19 -17 -14 -3 -1 -1 31 6 59 45 -1 -1 -6 -10 -11 -12 -15 -17 
-17 -18 -18 -19 -19 -19 -19 -20 -24 -27 -31 -37 -43 -47 -53 -59 -66 -75 -78 -69 -59 -51 -41 -36 -37 -38 -35 -31 -28 -26 -24 -23 -21 -19 -16 -15 -13 -2 -10 33 -2 -14 -21 -19 -18 -14 -10 -2 -1 -1 -1 36 16 -4 -12 -4 -2 -2 -12 -17 
-16 -17 -18 -18 -18 -18 -16 -16 -20 -23 -25 -30 -35 -39 -45 -53 -63 -77 -83 -75 -65 -56 -45 -38 -39 -40 -37 -32 -29 -27 -26 -24 -22 -20 -18 -16 -15 -11 -3 -1 11 -11 -19 -19 -19 -19 -17 -13 -10 -8 -5 -4 -6 -8 -14 -10 -10 -12 -15 -17 
-16 -16 -17 -17 -17 -17 -15 -14 -18 -20 -20 -23 -25 -28 -33 -39 -42 -49 -66 -66 -57 -50 -42 -38 -40 -41 -39 -35 -31 -29 -28 -27 -25 -23 -21 -19 -17 -16 -5 -2 -2 -6 -15 -18 -18 -19 -18 -18 -16 -15 -15 -11 -11 -13 -14 -14 -14 -16 -16 -17 
-15 -16 -16 -17 -16 -17 -17 -18 -17 -16 -15 -16 -17 -18 -20 -19 -3 17 -32 -50 -45 -40 -35 -33 -36 -39 -39 -35 -31 -30 -31 -31 -29 -26 -23 -22 -20 -19 -16 -14 -10 -9 -14 -17 -18 -19 -19 -19 -19 -19 -19 -17 -17 -17 -17 -16 -16 -16 -17 -17 
-16 -16 -17 -17 -18 -18 -19 -20 -18 -15 -13 -13 -13 -12 -10 -2 8 -15 -22 -39 -44 -42 -34 -27 -25 -30 -32 -31 -29 -27 -30 -31 -29 -27 -25 -24 -22 -22 -22 -23 -23 -20 -18 -18 -19 -20 -21 -21 -21 -21 -20 -20 -20 -20 -19 -18 -18 -18 -18 -19 
-16 -17 -17 -18 -19 -19 -20 -21 -19 -16 -15 -14 -13 -12 -3 -1 -1 -1 -1 -4 -44 -57 -47 -28 -4 -4 -1 -16 -20 -7 -20 -29 -28 -27 -26 -25 -24 -24 -25 -26 -27 -24 -21 -20 -20 -21 -21 -21 -21 -21 -21 -21 -21 -21 -21 -20 -19 -19 -19 -20 
-17 -17 -17 -17 -18 -19 -21 -22 -21 -20 -19 -18 -17 -16 -11 -5 1 33 30 -18 -53 -64 -59 -38 -7 -2 15 -2 -3 -1 -20 -28 -27 -27 -27 -26 -25 -24 -24 -25 -25 -24 -22 -21 -21 -21 -21 -21 -21 -21 -21 -21 -21 -21 -21 -20 -20 -20 -20 -21 
