ncols        60
nrows        43
xllcorner    122.350000000000
yllcorner    30.620833333333
cellsize     0.004166666667
40.0 40 40 40 40 40 40 40 40 40 40 40 40 40 40 40 40 40 44 40 40 40 40 44 40 40 40 40 40 40 40 44 40 40 40 40 40 40 44 40 40 40 40 40 40 40 40 40 44 40 40 40 40 40 40 40 40 40 40 40 
40 40 40 40 40 40 40 40 44 40 40 40 40 40 40 40 44 40 40 40 40 40 40 40 40 40 40 40 44 40 40 44 40 40 40 40 40 40 40 40 40 40 40 40 40 40 40 40 40 40 40 40 40 40 40 40 40 40 40 44 
40 40 40 44 40 40 40 40 40 40 40 44 40 40 40 40 40 40 40 40 40 40 40 40 40 40 44 40 40 40 40 44 40 44 40 40 40 40 40 40 40 40 40 40 40 40 40 40 40 40 40 40 40 40 40 40 44 40 40 40 
44 40 40 40 40 40 40 40 44 40 40 40 44 40 40 40 40 44 44 40 40 40 40 44 40 44 40 40 40 40 40 40 40 40 40 40 40 40 40 40 44 40 40 40 40 44 40 44 40 40 44 40 40 40 40 40 40 40 40 44 
40 40 40 40 40 40 40 40 40 40 40 40 40 40 40 40 40 40 40 44 40 40 40 40 40 40 44 40 40 40 40 40 40 40 40 40 40 40 44 40 40 40 40 40 40 40 40 40 40 40 40 40 40 44 40 40 40 40 40 40 
40 40 40 40 40 40 40 40 40 40 40 44 40 40 44 40 40 40 40 40 44 40 40 44 40 40 40 40 44 40 40 40 40 44 40 40 44 40 40 40 40 40 40 40 40 40 40 40 44 40 40 40 40 40 40 40 44 40 40 40 
40 44 40 40 40 44 40 40 40 40 40 40 40 40 40 44 40 44 40 40 40 40 40 44 40 40 40 40 40 44 44 40 40 40 40 40 40 40 40 40 40 44 40 40 40 40 44 40 40 40 40 44 40 40 40 40 40 40 40 40 
40 40 40 40 40 40 40 44 44 40 0 40 44 40 40 40 40 40 40 40 40 40 0 40 40 44 40 44 40 40 40 40 40 40 40 40 40 40 40 44 40 40 44 40 44 40 40 40 44 40 40 40 40 44 40 40 40 40 40 44 
40 40 44 40 40 40 40 0 40 0 40 40 40 40 44 40 40 40 40 40 40 40 44 40 44 40 40 40 40 40 44 40 40 40 40 44 40 40 40 40 40 40 40 40 40 40 40 44 40 40 40 44 40 40 40 40 44 40 40 40 
40 40 40 40 40 40 40 40 0 0 40 44 40 40 40 44 40 40 40 44 40 44 40 40 40 44 40 40 40 40 40 40 44 44 40 40 40 40 44 40 40 44 40 44 40 40 40 40 40 40 40 40 40 44 40 40 40 40 40 44 
44 40 40 40 44 40 40 44 0 0 40 44 40 40 40 40 40 40 40 40 40 40 40 40 0 0 0 44 40 40 44 40 40 40 40 40 40 40 44 40 40 40 40 40 44 40 40 44 40 44 40 40 40 40 40 40 40 40 40 40 
40 40 44 40 40 40 40 44 40 0 40 40 44 44 40 40 40 44 40 44 44 40 44 40 0 0 0 0 40 40 40 40 40 40 44 40 40 44 40 40 40 44 40 40 40 40 40 40 40 40 44 40 40 44 40 40 44 44 40 40 
40 40 40 40 40 44 40 40 44 0 40 44 44 40 40 44 40 40 40 40 44 40 40 0 0 0 0 0 40 40 40 40 40 40 40 40 40 40 40 40 40 40 40 40 44 40 40 40 40 40 40 40 40 40 40 40 44 40 40 40 
40 44 40 40 40 40 40 40 40 40 40 40 40 40 40 40 40 40 0 0 0 0 0 44 40 0 40 40 40 44 40 40 40 40 40 40 40 40 40 40 40 40 44 40 40 40 40 40 40 40 44 40 40 40 44 40 40 40 40 44 
40 40 40 44 40 40 44 40 44 44 44 40 40 40 40 44 44 40 40 0 0 0 0 0 0 40 40 40 40 44 40 40 44 40 40 40 44 40 40 44 44 40 40 40 40 40 40 44 40 40 40 40 40 40 40 40 40 40 40 40 
40 44 40 40 40 40 44 40 40 40 40 40 44 40 40 40 40 40 40 0 0 0 0 0 0 44 40 40 44 40 40 40 40 40 40 40 40 40 40 40 40 40 40 44 40 44 40 40 40 40 40 40 40 40 40 40 44 40 40 40 
40 40 44 44 40 40 44 40 40 40 44 40 40 40 40 44 40 40 40 0 0 0 0 0 0 0 40 40 40 40 40 44 40 40 40 44 44 40 40 40 40 40 40 40 40 40 44 40 40 40 40 44 40 40 40 40 40 40 40 40 
40 40 40 40 40 40 40 40 40 40 40 40 40 40 40 40 40 40 40 0 0 0 0 0 0 0 0 44 40 40 40 40 40 40 40 40 40 40 40 44 40 44 0 44 40 40 40 40 44 40 40 40 40 40 44 40 40 40 40 40 
44 40 40 40 40 44 44 44 40 40 40 40 44 40 40 44 40 40 40 0 0 0 0 0 0 0 0 0 0 40 44 40 40 44 40 40 0 40 40 40 40 0 0 0 40 40 44 40 40 40 40 44 40 40 40 40 40 44 40 40 
40 40 40 40 40 40 40 40 40 40 40 40 40 40 44 40 40 44 0 0 0 0 0 0 0 0 0 0 0 0 44 40 40 40 40 40 0 0 44 0 0 0 40 44 40 40 40 40 40 40 40 40 40 40 44 40 40 40 40 40 
40 44 40 40 40 40 44 40 40 44 40 40 44 40 40 40 0 0 0 0 0 0 0 0 0 0 0 0 0 0 0 40 40 44 0 0 0 0 0 0 0 0 40 40 40 40 40 40 44 40 40 40 40 40 40 40 40 44 40 40 
40 40 40 40 40 40 40 40 40 40 40 44 40 40 40 44 0 0 0 0 0 0 0 0 0 0 0 0 0 0 0 0 0 0 0 0 0 0 0 0 0 0 44 40 40 0 44 40 40 40 44 40 40 40 40 40 40 40 40 40 
40 40 40 44 40 40 40 40 44 44 40 40 40 40 40 40 0 0 0 0 0 0 0 0 0 0 0 0 0 0 0 0 0 0 0 0 0 0 0 0 0 0 0 0 0 40 40 40 44 40 40 40 44 40 40 40 44 40 40 40 
44 40 40 44 40 44 40 40 40 40 40 40 40 44 40 40 40 44 0 0 0 0 0 0 0 0 0 0 0 0 0 44 0 0 0 44 0 0 0 44 40 0 0 0 40 44 40 40 40 40 40 40 40 40 40 40 40 40 40 40 
40 40 40 40 40 40 40 40 40 40 44 40 40 40 40 40 40 0 0 0 0 0 0 0 0 0 0 44 40 40 44 40 40 44 40 44 40 40 44 40 40 40 40 44 40 40 40 40 40 44 40 40 40 40 40 40 40 44 40 40 
40 40 44 40 40 40 40 44 40 44 40 40 40 40 40 44 40 0 40 0 0 44 0 0 44 0 0 40 40 44 40 40 40 40 40 40 40 40 40 40 40 40 44 40 40 40 44 40 40 40 40 40 40 44 40 40 40 40 40 40 
40 40 40 40 40 40 40 40 40 40 40 44 40 40 40 40 40 40 0 0 40 40 0 40 40 40 40 40 40 40 40 40 44 40 40 40 40 44 40 40 44 40 40 40 40 40 40 40 40 40 40 40 40 40 40 40 44 40 40 40 
40 40 40 40 44 40 40 40 44 40 40 40 40 44 40 44 0 0 0 40 40 44 40 44 40 40 44 44 40 0 40 40 40 40 40 40 40 40 40 40 40 40 40 40 44 40 40 40 40 40 44 40 40 40 40 40 40 44 40 44 
40 44 40 40 44 40 40 40 40 44 40 40 40 44 0 40 0 0 44 40 44 40 40 40 40 40 40 44 40 40 40 40 40 44 40 44 40 40 44 40 40 40 40 40 40 40 40 44 40 0 40 40 40 44 40 40 40 40 40 40 
40 40 40 40 40 40 44 40 40 40 44 40 40 40 0 0 40 0 0 40 40 40 44 40 40 44 40 40 40 44 40 40 40 40 40 40 40 40 40 40 40 44 40 40 40 44 40 40 40 0 0 44 40 40 40 40 44 40 40 44 
40 40 40 44 40 40 40 40 40 40 40 40 40 0 0 44 40 0 40 44 44 40 40 44 40 40 40 44 40 40 40 0 40 40 40 40 44 40 40 40 40 0 0 0 40 40 40 40 44 0 0 0 40 40 44 40 40 40 40 40 
44 40 40 40 40 40 44 44 40 40 40 40 44 40 40 40 40 44 40 40 40 40 40 40 40 40 40 40 40 44 40 0 40 44 40 40 40 44 40 40 44 0 0 0 44 40 44 0 0 0 0 0 0 0 40 40 40 40 40 40 
40 40 40 40 44 40 40 40 40 40 40 40 40 40 40 40 40 40 44 40 40 40 40 40 44 40 40 40 40 40 44 40 40 40 40 40 40 40 40 40 40 40 44 40 0 0 44 0 0 0 0 0 0 0 0 0 44 40 40 44 
40 40 40 40 40 40 40 40 40 44 40 40 40 40 44 40 40 44 40 40 44 40 40 40 40 40 40 40 44 40 40 40 44 40 40 44 40 40 40 44 40 40 40 40 40 44 40 0 0 0 0 0 0 0 0 0 40 40 40 40 
40 44 40 40 40 40 44 40 40 40 40 40 40 40 40 40 40 44 40 44 40 40 40 44 40 40 40 40 40 40 44 40 40 40 40 40 40 40 40 40 40 44 44 40 40 40 0 0 0 0 0 44 40 40 44 40 40 40 40 40 
40 40 40 44 44 40 40 40 40 40 40 44 40 40 40 44 40 40 40 40 40 44 40 40 40 40 40 44 40 40 40 40 40 44 40 40 44 40 40 0 44 40 40 40 40 40 40 44 0 0 0 0 44 40 40 40 40 44 40 40 
40 40 40 40 40 40 40 40 44 44 40 40 40 40 40 40 40 40 40 40 40 44 40 40 40 40 40 40 40 40 40 40 40 40 40 40 40 40 40 0 40 40 44 40 40 44 40 40 40 40 40 0 0 40 44 40 40 40 44 40 
44 40 40 40 40 44 40 40 40 40 40 40 44 40 40 40 40 40 44 40 40 40 40 40 40 44 40 40 40 40 44 40 40 40 44 40 40 44 40 44 0 40 40 40 40 40 40 40 44 40 40 40 40 40 40 40 40 40 40 40 
40 44 40 40 40 44 40 40 40 44 40 40 40 40 40 44 40 44 40 40 44 40 40 40 40 40 40 44 40 44 40 40 40 40 40 40 40 40 40 40 40 44 40 40 40 40 40 40 40 44 40 40 40 40 40 40 44 40 40 40 
40 40 44 40 40 40 40 44 40 40 44 40 40 40 40 40 40 0 44 40 40 40 40 40 44 40 40 40 40 40 44 40 40 44 40 40 40 44 40 44 40 40 40 40 44 40 40 40 40 40 44 40 44 40 40 44 40 40 40 44 
40 40 40 40 44 40 40 40 40 40 40 40 44 40 40 44 0 44 40 40 40 40 44 40 40 40 40 40 40 40 40 40 40 40 40 44 40 40 40 40 40 40 40 40 40 40 40 40 40 40 40 40 40 40 40 40 40 40 40 40 
40 40 40 40 44 40 40 40 44 40 40 44 40 40 40 40 40 40 44 40 44 40 40 40 44 40 40 44 44 40 44 40 40 40 40 40 40 40 40 40 40 44 40 44 40 40 40 40 44 40 40 40 40 40 40 40 40 44 40 40 
40 44 40 40 40 40 40 40 40 40 40 40 44 40 40 44 0 0 0 40 40 44 40 44 40 40 0 40 40 0 40 40 40 44 40 40 40 44 40 40 40 40 40 40 40 40 40 40 40 40 40 40 40 44 40 40 40 40 44 40 
